(.../Documents/eagle/pcb-gcode/pcb-gcode.ulp)
(Copyright 2005 - 2012 by John Johnson)
(See readme.txt for licensing terms.)
(This file generated from the board:)
(.../AC-Motor control/ZeroCrossSimple.brd)
(Current profile is .../eagle/pcb-gcode/profiles/emc.pp  )
(This file generated 13/02/15 18:17)
(Settings from pcb-machine.h)
(spindle on time = 3.0000)
(  Tool Size)
(0.1778 )
(spindle speed = 30000.0000)
(tool change at 0.0000 0.0000 25.4000 )
(feed rate xy = F508.00 )
(feed rate z  = F254.00 )
(Z Axis Settings)
(  High     Up        Down     Drill)
(12.7000 	2.5400 	-0.1778 	-0.8128 )
(Settings from pcb-defaults.h)
(isolate min = 0.0254)
(isolate max = 0.5080)
(isolate step = 0.1270)
(Generated top outlines, top drill, )
(Unit of measure: mm)
(Metric Mode)
G21
(Absolute Coordinates)
G90
S30000
G00 Z12.7000 
G00 X0.0000 Y0.0000 
M03
G04 P3.000000
G00 Z2.5400 
G00 X3.4504 Y3.2564 
G01 Z-0.1778 F254.00 
G01 X3.3399 Y3.4217 F508.00 
G01 X3.2638 Y3.6055 
G01 X3.2250 Y3.8006 
G01 X3.2250 Y3.9994 
G01 X3.2638 Y4.1945 
G01 X3.3399 Y4.3782 
G01 X3.4504 Y4.5436 
G01 X3.5910 Y4.6842 
G01 X3.7564 Y4.7947 
G01 X3.9401 Y4.8708 
G01 X4.1352 Y4.9096 
G01 X6.1248 Y4.9096 
G01 X6.3199 Y4.8708 
G01 X6.3642 Y4.8525 
G01 X15.4268 Y4.8525 
G01 X15.6108 Y4.8159 
G01 X15.7842 Y4.7441 
G01 X15.9402 Y4.6399 
G01 X18.2719 Y2.3082 
G01 X18.3761 Y2.1522 
G01 X18.4479 Y1.9788 
G01 X18.4845 Y1.7948 
G01 X18.4845 Y1.6072 
G01 X18.4713 Y1.5408 
G01 X18.4713 Y-0.0415 
G01 X18.4352 Y-0.2230 
G01 X18.3644 Y-0.3939 
G01 X18.2616 Y-0.5478 
G01 X18.1308 Y-0.6786 
G01 X17.9769 Y-0.7814 
G01 X17.8060 Y-0.8522 
G01 X17.6245 Y-0.8883 
G01 X17.4395 Y-0.8883 
G01 X17.2580 Y-0.8522 
G01 X17.0871 Y-0.7814 
G01 X16.9332 Y-0.6786 
G01 X16.8024 Y-0.5478 
G01 X16.6996 Y-0.3939 
G01 X16.6288 Y-0.2230 
G01 X16.5927 Y-0.0415 
G01 X16.5927 Y1.2933 
G01 X14.9385 Y2.9475 
G01 X6.3642 Y2.9475 
G01 X6.3199 Y2.9291 
G01 X6.1248 Y2.8904 
G01 X4.1352 Y2.8904 
G01 X3.9401 Y2.9291 
G01 X3.7564 Y3.0053 
G01 X3.5910 Y3.1158 
G01 X3.4504 Y3.2564 
G00 Z2.5400 
G00 X3.5175 Y7.7232 
G01 Z-0.1778 F254.00 
G01 X3.3369 Y7.7819 F508.00 
G01 X3.1677 Y7.8681 
G01 X3.0140 Y7.9797 
G01 X0.6140 Y10.3797 
G01 X0.4797 Y10.5140 
G01 X0.3681 Y10.6677 
G01 X0.2819 Y10.8369 
G01 X0.2232 Y11.0175 
G01 X0.1935 Y11.2050 
G01 X0.1935 Y16.9950 
G01 X0.2232 Y17.1825 
G01 X0.2819 Y17.3631 
G01 X0.3681 Y17.5323 
G01 X0.4797 Y17.6860 
G01 X2.4797 Y19.6860 
G01 X2.6140 Y19.8203 
G01 X2.7677 Y19.9319 
G01 X2.9369 Y20.0181 
G01 X3.1175 Y20.0768 
G01 X3.3050 Y20.1065 
G01 X7.4002 Y20.1065 
G01 X7.9797 Y20.6860 
G01 X8.1140 Y20.8203 
G01 X8.2677 Y20.9319 
G01 X8.4369 Y21.0181 
G01 X8.6175 Y21.0768 
G01 X8.8050 Y21.1065 
G01 X11.2757 Y21.1065 
G01 X11.2757 Y21.5657 
G01 X11.2931 Y21.6077 
G01 X11.3253 Y21.6399 
G01 X11.3673 Y21.6573 
G01 X13.2127 Y21.6573 
G01 X13.2547 Y21.6399 
G01 X13.2869 Y21.6077 
G01 X13.3043 Y21.5657 
G01 X13.3043 Y20.5996 
G01 X13.3219 Y20.5753 
G01 X13.4081 Y20.4061 
G01 X13.4668 Y20.2255 
G01 X13.4965 Y20.0380 
G01 X13.4965 Y19.8480 
G01 X13.4668 Y19.6605 
G01 X13.4081 Y19.4799 
G01 X13.3219 Y19.3107 
G01 X13.3043 Y19.2864 
G01 X13.3043 Y18.3203 
G01 X13.2869 Y18.2783 
G01 X13.2547 Y18.2461 
G01 X13.2127 Y18.2287 
G01 X11.3673 Y18.2287 
G01 X11.3253 Y18.2461 
G01 X11.2931 Y18.2783 
G01 X11.2757 Y18.3203 
G01 X11.2757 Y18.6935 
G01 X9.3997 Y18.6935 
G01 X8.6860 Y17.9797 
G01 X8.5323 Y17.8681 
G01 X8.3631 Y17.7819 
G01 X8.1825 Y17.7232 
G01 X7.9950 Y17.6935 
G01 X3.8998 Y17.6935 
G01 X2.6065 Y16.4002 
G01 X2.6065 Y11.7997 
G01 X4.2998 Y10.1065 
G01 X5.2250 Y10.1065 
G01 X5.4125 Y10.0768 
G01 X5.5931 Y10.0181 
G01 X5.7623 Y9.9319 
G01 X5.7930 Y9.9096 
G01 X6.1248 Y9.9096 
G01 X6.3199 Y9.8708 
G01 X6.5036 Y9.7947 
G01 X6.6690 Y9.6842 
G01 X6.8096 Y9.5436 
G01 X6.9201 Y9.3782 
G01 X6.9962 Y9.1945 
G01 X7.0350 Y8.9994 
G01 X7.0350 Y8.8006 
G01 X6.9962 Y8.6055 
G01 X6.9201 Y8.4217 
G01 X6.8096 Y8.2564 
G01 X6.6690 Y8.1158 
G01 X6.5036 Y8.0053 
G01 X6.3199 Y7.9291 
G01 X6.1248 Y7.8903 
G01 X5.7930 Y7.8903 
G01 X5.7623 Y7.8681 
G01 X5.5931 Y7.7819 
G01 X5.4125 Y7.7232 
G01 X5.2250 Y7.6935 
G01 X3.7050 Y7.6935 
G01 X3.5175 Y7.7232 
G00 Z2.5400 
G00 X3.5910 Y13.1158 
G01 Z-0.1778 F254.00 
G01 X3.4504 Y13.2564 F508.00 
G01 X3.3399 Y13.4217 
G01 X3.2638 Y13.6055 
G01 X3.2250 Y13.8006 
G01 X3.2250 Y13.9994 
G01 X3.2638 Y14.1945 
G01 X3.3399 Y14.3782 
G01 X3.4504 Y14.5436 
G01 X3.5910 Y14.6842 
G01 X3.7564 Y14.7947 
G01 X3.9401 Y14.8708 
G01 X4.1352 Y14.9096 
G01 X4.4670 Y14.9096 
G01 X4.4977 Y14.9319 
G01 X4.6669 Y15.0181 
G01 X4.8475 Y15.0768 
G01 X5.0350 Y15.1065 
G01 X10.1462 Y15.1065 
G01 X11.2947 Y16.2550 
G01 X11.2947 Y17.1857 
G01 X11.3121 Y17.2277 
G01 X11.3443 Y17.2599 
G01 X11.3863 Y17.2773 
G01 X13.2317 Y17.2773 
G01 X13.2737 Y17.2599 
G01 X13.3059 Y17.2277 
G01 X13.3233 Y17.1857 
G01 X13.3233 Y16.2196 
G01 X13.3409 Y16.1953 
G01 X13.4271 Y16.0261 
G01 X13.4858 Y15.8455 
G01 X13.5155 Y15.6580 
G01 X13.5155 Y15.4680 
G01 X13.4858 Y15.2805 
G01 X13.4271 Y15.0999 
G01 X13.3409 Y14.9307 
G01 X13.3233 Y14.9064 
G01 X13.3233 Y13.9403 
G01 X13.3059 Y13.8983 
G01 X13.2737 Y13.8661 
G01 X13.2317 Y13.8487 
G01 X12.3010 Y13.8487 
G01 X12.2292 Y13.7770 
G01 X14.0998 Y11.9065 
G01 X19.0950 Y11.9065 
G01 X19.2825 Y11.8768 
G01 X19.4631 Y11.8181 
G01 X19.5686 Y11.7643 
G01 X19.6271 Y11.8034 
G01 X19.7980 Y11.8742 
G01 X19.9795 Y11.9103 
G01 X20.1645 Y11.9103 
G01 X20.3460 Y11.8742 
G01 X20.5169 Y11.8034 
G01 X20.6708 Y11.7006 
G01 X20.8016 Y11.5698 
G01 X20.9044 Y11.4159 
G01 X20.9752 Y11.2450 
G01 X21.0113 Y11.0635 
G01 X21.0113 Y10.3878 
G01 X21.1039 Y10.2603 
G01 X21.1901 Y10.0911 
G01 X21.2488 Y9.9105 
G01 X21.2785 Y9.7230 
G01 X21.2785 Y9.2260 
G01 X21.2488 Y9.0385 
G01 X21.1901 Y8.8579 
G01 X21.1039 Y8.6887 
G01 X20.9923 Y8.5350 
G01 X20.8580 Y8.4007 
G01 X20.7043 Y8.2891 
G01 X20.5351 Y8.2029 
G01 X20.3545 Y8.1442 
G01 X20.1670 Y8.1145 
G01 X19.9770 Y8.1145 
G01 X19.7895 Y8.1442 
G01 X19.6089 Y8.2029 
G01 X19.4397 Y8.2891 
G01 X19.2860 Y8.4007 
G01 X19.1517 Y8.5350 
G01 X19.0401 Y8.6887 
G01 X18.9539 Y8.8579 
G01 X18.8952 Y9.0385 
G01 X18.8839 Y9.1098 
G01 X18.5002 Y9.4935 
G01 X13.5050 Y9.4935 
G01 X13.3175 Y9.5232 
G01 X13.1369 Y9.5819 
G01 X12.9677 Y9.6681 
G01 X12.8140 Y9.7797 
G01 X9.9002 Y12.6935 
G01 X5.0350 Y12.6935 
G01 X4.8475 Y12.7232 
G01 X4.6669 Y12.7819 
G01 X4.4977 Y12.8681 
G01 X4.4670 Y12.8903 
G01 X4.1352 Y12.8903 
G01 X3.9401 Y12.9291 
G01 X3.7564 Y13.0053 
G01 X3.5910 Y13.1158 
G00 Z2.5400 
G00 X16.9121 Y13.8983 
G01 Z-0.1778 F254.00 
G01 X16.8947 Y13.9403 F508.00 
G01 X16.8947 Y17.1857 
G01 X16.9121 Y17.2277 
G01 X16.9443 Y17.2599 
G01 X16.9863 Y17.2773 
G01 X18.8317 Y17.2773 
G01 X18.8737 Y17.2599 
G01 X18.9059 Y17.2277 
G01 X18.9233 Y17.1857 
G01 X18.9233 Y16.1223 
G01 X19.2422 Y16.1223 
G01 X20.7203 Y17.6004 
G01 X20.8222 Y17.6685 
G01 X20.9355 Y17.7154 
G01 X21.0557 Y17.7393 
G01 X22.8607 Y17.7393 
G01 X22.8607 Y18.0297 
G01 X22.8781 Y18.0717 
G01 X22.9103 Y18.1039 
G01 X22.9523 Y18.1213 
G01 X24.5177 Y18.1213 
G01 X24.5597 Y18.1039 
G01 X24.5919 Y18.0717 
G01 X24.6093 Y18.0297 
G01 X24.6093 Y16.2043 
G01 X24.5919 Y16.1623 
G01 X24.5597 Y16.1301 
G01 X24.5177 Y16.1127 
G01 X22.9523 Y16.1127 
G01 X22.9103 Y16.1301 
G01 X22.8781 Y16.1623 
G01 X22.8607 Y16.2043 
G01 X22.8607 Y16.4947 
G01 X21.3748 Y16.4947 
G01 X19.9834 Y15.1033 
G01 X19.8967 Y15.0166 
G01 X19.7948 Y14.9485 
G01 X19.6815 Y14.9016 
G01 X19.5613 Y14.8777 
G01 X18.9233 Y14.8777 
G01 X18.9233 Y13.9403 
G01 X18.9059 Y13.8983 
G01 X18.8737 Y13.8661 
G01 X18.8317 Y13.8487 
G01 X16.9863 Y13.8487 
G01 X16.9443 Y13.8661 
G01 X16.9121 Y13.8983 
G00 Z2.5400 
G00 X16.9253 Y18.2461 
G01 Z-0.1778 F254.00 
G01 X16.8931 Y18.2783 F508.00 
G01 X16.8757 Y18.3203 
G01 X16.8757 Y21.5657 
G01 X16.8931 Y21.6077 
G01 X16.9253 Y21.6399 
G01 X16.9673 Y21.6573 
G01 X18.8127 Y21.6573 
G01 X18.8547 Y21.6399 
G01 X18.8869 Y21.6077 
G01 X18.9043 Y21.5657 
G01 X18.9043 Y20.2793 
G01 X22.8607 Y20.2793 
G01 X22.8607 Y20.5697 
G01 X22.8781 Y20.6117 
G01 X22.9103 Y20.6439 
G01 X22.9523 Y20.6613 
G01 X24.5177 Y20.6613 
G01 X24.5597 Y20.6439 
G01 X24.5919 Y20.6117 
G01 X24.6093 Y20.5697 
G01 X24.6093 Y18.7443 
G01 X24.5919 Y18.7023 
G01 X24.5597 Y18.6701 
G01 X24.5177 Y18.6527 
G01 X22.9523 Y18.6527 
G01 X22.9103 Y18.6701 
G01 X22.8781 Y18.7023 
G01 X22.8607 Y18.7443 
G01 X22.8607 Y19.0347 
G01 X18.9043 Y19.0347 
G01 X18.9043 Y18.3203 
G01 X18.8869 Y18.2783 
G01 X18.8547 Y18.2461 
G01 X18.8127 Y18.2287 
G01 X16.9673 Y18.2287 
G01 X16.9253 Y18.2461 
G00 Z2.5400 
G00 X22.9103 Y15.5639 
G01 Z-0.1778 F254.00 
G01 X22.9523 Y15.5813 F508.00 
G01 X24.5177 Y15.5813 
G01 X24.5597 Y15.5639 
G01 X24.5919 Y15.5317 
G01 X24.6093 Y15.4897 
G01 X24.6093 Y13.6643 
G01 X24.5919 Y13.6223 
G01 X24.5597 Y13.5901 
G01 X24.5177 Y13.5727 
G01 X22.9523 Y13.5727 
G01 X22.9103 Y13.5901 
G01 X22.8781 Y13.6223 
G01 X22.8607 Y13.6643 
G01 X22.8607 Y15.4897 
G01 X22.8781 Y15.5317 
G01 X22.9103 Y15.5639 
G00 Z2.5400 
G00 X32.2003 Y15.5639 
G01 Z-0.1778 F254.00 
G01 X32.2423 Y15.5813 F508.00 
G01 X33.8077 Y15.5813 
G01 X33.8497 Y15.5639 
G01 X33.8819 Y15.5317 
G01 X33.8993 Y15.4897 
G01 X33.8993 Y13.6643 
G01 X33.8819 Y13.6223 
G01 X33.8497 Y13.5901 
G01 X33.8077 Y13.5727 
G01 X33.4441 Y13.5727 
G01 X33.4441 Y4.1616 
G01 X35.0122 Y2.5935 
G01 X35.0380 Y2.6042 
G01 X35.2195 Y2.6403 
G01 X35.4045 Y2.6403 
G01 X35.5860 Y2.6042 
G01 X35.7569 Y2.5334 
G01 X35.9108 Y2.4306 
G01 X36.0416 Y2.2998 
G01 X36.1444 Y2.1459 
G01 X36.1551 Y2.1201 
G01 X41.3674 Y2.1201 
G01 X43.1441 Y3.8968 
G01 X42.9968 Y3.9718 
G01 X42.8199 Y4.1003 
G01 X42.6653 Y4.2549 
G01 X42.5368 Y4.4318 
G01 X42.4375 Y4.6267 
G01 X42.3699 Y4.8347 
G01 X42.3357 Y5.0507 
G01 X42.3357 Y5.2693 
G01 X42.3699 Y5.4853 
G01 X42.4375 Y5.6933 
G01 X42.5368 Y5.8882 
G01 X42.6653 Y6.0651 
G01 X42.8199 Y6.2197 
G01 X42.9968 Y6.3482 
G01 X43.1917 Y6.4475 
G01 X43.3997 Y6.5151 
G01 X43.6157 Y6.5493 
G01 X46.3843 Y6.5493 
G01 X46.6003 Y6.5151 
G01 X46.8083 Y6.4475 
G01 X47.0031 Y6.3482 
G01 X47.1801 Y6.2197 
G01 X47.3347 Y6.0651 
G01 X47.4632 Y5.8882 
G01 X47.5625 Y5.6933 
G01 X47.6301 Y5.4853 
G01 X47.6643 Y5.2693 
G01 X47.6643 Y5.0507 
G01 X47.6301 Y4.8347 
G01 X47.5625 Y4.6267 
G01 X47.4632 Y4.4318 
G01 X47.3347 Y4.2549 
G01 X47.1801 Y4.1003 
G01 X47.0031 Y3.9718 
G01 X46.8083 Y3.8725 
G01 X46.6003 Y3.8049 
G01 X46.3843 Y3.7707 
G01 X44.2034 Y3.7707 
G01 X41.7983 Y1.3656 
G01 X41.7028 Y1.3105 
G01 X41.5962 Y1.2819 
G01 X36.2513 Y1.2819 
G01 X36.2513 Y-0.0415 
G01 X36.2152 Y-0.2230 
G01 X36.1444 Y-0.3939 
G01 X36.0416 Y-0.5478 
G01 X35.9108 Y-0.6786 
G01 X35.7569 Y-0.7814 
G01 X35.5860 Y-0.8522 
G01 X35.4045 Y-0.8883 
G01 X35.2195 Y-0.8883 
G01 X35.0380 Y-0.8522 
G01 X34.8671 Y-0.7814 
G01 X34.7132 Y-0.6786 
G01 X34.5824 Y-0.5478 
G01 X34.4796 Y-0.3939 
G01 X34.4088 Y-0.2230 
G01 X34.3727 Y-0.0415 
G01 X34.3727 Y1.7935 
G01 X34.4088 Y1.9750 
G01 X34.4195 Y2.0008 
G01 X32.6896 Y3.7307 
G01 X32.6345 Y3.8262 
G01 X32.6059 Y3.9328 
G01 X32.6059 Y13.5727 
G01 X32.2423 Y13.5727 
G01 X32.2003 Y13.5901 
G01 X32.1681 Y13.6223 
G01 X32.1507 Y13.6643 
G01 X32.1507 Y15.4897 
G01 X32.1681 Y15.5317 
G01 X32.2003 Y15.5639 
G00 Z2.5400 
G00 X32.2003 Y16.1301 
G01 Z-0.1778 F254.00 
G01 X32.1681 Y16.1623 F508.00 
G01 X32.1507 Y16.2043 
G01 X32.1507 Y18.0297 
G01 X32.1681 Y18.0717 
G01 X32.2003 Y18.1039 
G01 X32.2423 Y18.1213 
G01 X33.8077 Y18.1213 
G01 X33.8497 Y18.1039 
G01 X33.8819 Y18.0717 
G01 X33.8993 Y18.0297 
G01 X33.8993 Y17.5361 
G01 X35.1857 Y17.5361 
G01 X35.1857 Y17.7627 
G01 X35.2031 Y17.8047 
G01 X35.2353 Y17.8369 
G01 X35.2773 Y17.8543 
G01 X36.1227 Y17.8543 
G01 X36.1647 Y17.8369 
G01 X36.1969 Y17.8047 
G01 X36.2143 Y17.7627 
G01 X36.2143 Y16.5173 
G01 X36.1969 Y16.4753 
G01 X36.1647 Y16.4431 
G01 X36.1227 Y16.4257 
G01 X36.1191 Y16.4257 
G01 X36.1191 Y15.4736 
G01 X38.0736 Y13.5191 
G01 X42.4069 Y13.5191 
G01 X42.4375 Y13.6133 
G01 X42.5368 Y13.8081 
G01 X42.6653 Y13.9851 
G01 X42.8199 Y14.1397 
G01 X42.9968 Y14.2682 
G01 X43.1917 Y14.3675 
G01 X43.3997 Y14.4351 
G01 X43.6157 Y14.4693 
G01 X46.3843 Y14.4693 
G01 X46.6003 Y14.4351 
G01 X46.8083 Y14.3675 
G01 X47.0031 Y14.2682 
G01 X47.1801 Y14.1397 
G01 X47.3347 Y13.9851 
G01 X47.4632 Y13.8081 
G01 X47.5625 Y13.6133 
G01 X47.6301 Y13.4053 
G01 X47.6643 Y13.1893 
G01 X47.6643 Y12.9707 
G01 X47.6301 Y12.7547 
G01 X47.5625 Y12.5467 
G01 X47.4632 Y12.3518 
G01 X47.3347 Y12.1749 
G01 X47.1801 Y12.0203 
G01 X47.0031 Y11.8918 
G01 X46.8083 Y11.7925 
G01 X46.6003 Y11.7249 
G01 X46.3843 Y11.6907 
G01 X43.6157 Y11.6907 
G01 X43.3997 Y11.7249 
G01 X43.1917 Y11.7925 
G01 X42.9968 Y11.8918 
G01 X42.8199 Y12.0203 
G01 X42.6653 Y12.1749 
G01 X42.5368 Y12.3518 
G01 X42.4375 Y12.5467 
G01 X42.3939 Y12.6809 
G01 X37.8448 Y12.6809 
G01 X37.7382 Y12.7095 
G01 X37.6427 Y12.7646 
G01 X37.5646 Y12.8427 
G01 X35.3646 Y15.0427 
G01 X35.3095 Y15.1382 
G01 X35.2809 Y15.2448 
G01 X35.2809 Y16.4257 
G01 X35.2773 Y16.4257 
G01 X35.2353 Y16.4431 
G01 X35.2031 Y16.4753 
G01 X35.1857 Y16.5173 
G01 X35.1857 Y16.6979 
G01 X33.8993 Y16.6979 
G01 X33.8993 Y16.2043 
G01 X33.8819 Y16.1623 
G01 X33.8497 Y16.1301 
G01 X33.8077 Y16.1127 
G01 X32.2423 Y16.1127 
G01 X32.2003 Y16.1301 
G00 Z2.5400 
G00 X32.2003 Y18.6701 
G01 Z-0.1778 F254.00 
G01 X32.1681 Y18.7023 F508.00 
G01 X32.1507 Y18.7443 
G01 X32.1507 Y20.5697 
G01 X32.1681 Y20.6117 
G01 X32.2003 Y20.6439 
G01 X32.2423 Y20.6613 
G01 X33.8077 Y20.6613 
G01 X33.8497 Y20.6439 
G01 X33.8819 Y20.6117 
G01 X33.8993 Y20.5697 
G01 X33.8993 Y18.7443 
G01 X33.8819 Y18.7023 
G01 X33.8497 Y18.6701 
G01 X33.8077 Y18.6527 
G01 X32.2423 Y18.6527 
G01 X32.2003 Y18.6701 
G00 Z2.5400 
G00 X37.0353 Y17.8369 
G01 Z-0.1778 F254.00 
G01 X37.0773 Y17.8543 F508.00 
G01 X37.9227 Y17.8543 
G01 X37.9647 Y17.8369 
G01 X37.9969 Y17.8047 
G01 X38.0143 Y17.7627 
G01 X38.0143 Y17.5523 
G01 X42.4116 Y17.4936 
G01 X42.4375 Y17.5733 
G01 X42.5368 Y17.7681 
G01 X42.6653 Y17.9451 
G01 X42.8199 Y18.0997 
G01 X42.9968 Y18.2282 
G01 X43.1917 Y18.3275 
G01 X43.3997 Y18.3951 
G01 X43.6157 Y18.4293 
G01 X46.3843 Y18.4293 
G01 X46.6003 Y18.3951 
G01 X46.8083 Y18.3275 
G01 X47.0031 Y18.2282 
G01 X47.1801 Y18.0997 
G01 X47.3347 Y17.9451 
G01 X47.4632 Y17.7681 
G01 X47.5625 Y17.5733 
G01 X47.6301 Y17.3653 
G01 X47.6643 Y17.1493 
G01 X47.6643 Y16.9307 
G01 X47.6301 Y16.7147 
G01 X47.5625 Y16.5067 
G01 X47.4632 Y16.3118 
G01 X47.3347 Y16.1349 
G01 X47.1801 Y15.9803 
G01 X47.0031 Y15.8518 
G01 X46.8083 Y15.7525 
G01 X46.6003 Y15.6849 
G01 X46.3843 Y15.6507 
G01 X43.6157 Y15.6507 
G01 X43.3997 Y15.6849 
G01 X43.1917 Y15.7525 
G01 X42.9968 Y15.8518 
G01 X42.8199 Y15.9803 
G01 X42.6653 Y16.1349 
G01 X42.5368 Y16.3118 
G01 X42.4375 Y16.5067 
G01 X42.3891 Y16.6557 
G01 X38.0143 Y16.7140 
G01 X38.0143 Y16.5173 
G01 X37.9969 Y16.4753 
G01 X37.9647 Y16.4431 
G01 X37.9227 Y16.4257 
G01 X37.0773 Y16.4257 
G01 X37.0353 Y16.4431 
G01 X37.0031 Y16.4753 
G01 X36.9857 Y16.5173 
G01 X36.9857 Y17.7627 
G01 X37.0031 Y17.8047 
G01 X37.0353 Y17.8369 
G00 Z2.5400 
G00 X38.0183 Y11.6019 
G01 Z-0.1778 F254.00 
G01 X38.0603 Y11.6193 F508.00 
G01 X38.9057 Y11.6193 
G01 X38.9477 Y11.6019 
G01 X38.9799 Y11.5697 
G01 X38.9973 Y11.5277 
G01 X38.9973 Y10.2823 
G01 X38.9799 Y10.2403 
G01 X38.9477 Y10.2081 
G01 X38.9057 Y10.1907 
G01 X38.0603 Y10.1907 
G01 X38.0183 Y10.2081 
G01 X37.9861 Y10.2403 
G01 X37.9687 Y10.2823 
G01 X37.9687 Y10.4859 
G01 X36.2513 Y10.4859 
G01 X36.2513 Y9.2285 
G01 X36.2152 Y9.0470 
G01 X36.1444 Y8.8761 
G01 X36.0416 Y8.7222 
G01 X35.9108 Y8.5914 
G01 X35.7569 Y8.4886 
G01 X35.5860 Y8.4178 
G01 X35.4045 Y8.3817 
G01 X35.2195 Y8.3817 
G01 X35.0380 Y8.4178 
G01 X34.8671 Y8.4886 
G01 X34.7132 Y8.5914 
G01 X34.5824 Y8.7222 
G01 X34.4796 Y8.8761 
G01 X34.4088 Y9.0470 
G01 X34.3727 Y9.2285 
G01 X34.3727 Y11.0635 
G01 X34.4088 Y11.2450 
G01 X34.4796 Y11.4159 
G01 X34.5824 Y11.5698 
G01 X34.7132 Y11.7006 
G01 X34.8671 Y11.8034 
G01 X35.0380 Y11.8742 
G01 X35.2195 Y11.9103 
G01 X35.4045 Y11.9103 
G01 X35.5860 Y11.8742 
G01 X35.7569 Y11.8034 
G01 X35.9108 Y11.7006 
G01 X36.0416 Y11.5698 
G01 X36.1444 Y11.4159 
G01 X36.1824 Y11.3241 
G01 X37.9687 Y11.3241 
G01 X37.9687 Y11.5277 
G01 X37.9861 Y11.5697 
G01 X38.0183 Y11.6019 
G00 Z2.5400 
G00 X39.8183 Y11.6019 
G01 Z-0.1778 F254.00 
G01 X39.8603 Y11.6193 F508.00 
G01 X40.7057 Y11.6193 
G01 X40.7477 Y11.6019 
G01 X40.7799 Y11.5697 
G01 X40.7973 Y11.5277 
G01 X40.7973 Y11.3191 
G01 X41.4552 Y11.3191 
G01 X41.5618 Y11.2905 
G01 X41.6573 Y11.2354 
G01 X41.7354 Y11.1573 
G01 X42.7665 Y10.1262 
G01 X42.8199 Y10.1797 
G01 X42.9968 Y10.3082 
G01 X43.1917 Y10.4075 
G01 X43.3997 Y10.4751 
G01 X43.6157 Y10.5093 
G01 X46.3843 Y10.5093 
G01 X46.6003 Y10.4751 
G01 X46.8083 Y10.4075 
G01 X47.0031 Y10.3082 
G01 X47.1801 Y10.1797 
G01 X47.3347 Y10.0251 
G01 X47.4632 Y9.8482 
G01 X47.5625 Y9.6533 
G01 X47.6301 Y9.4453 
G01 X47.6643 Y9.2293 
G01 X47.6643 Y9.0107 
G01 X47.6301 Y8.7947 
G01 X47.5625 Y8.5867 
G01 X47.4632 Y8.3918 
G01 X47.3347 Y8.2149 
G01 X47.1801 Y8.0603 
G01 X47.0031 Y7.9318 
G01 X46.8083 Y7.8325 
G01 X46.6003 Y7.7649 
G01 X46.3843 Y7.7307 
G01 X43.6157 Y7.7307 
G01 X43.3997 Y7.7649 
G01 X43.1917 Y7.8325 
G01 X42.9968 Y7.9318 
G01 X42.8199 Y8.0603 
G01 X42.6653 Y8.2149 
G01 X42.5368 Y8.3918 
G01 X42.4375 Y8.5867 
G01 X42.3699 Y8.7947 
G01 X42.3357 Y9.0107 
G01 X42.3357 Y9.2293 
G01 X42.3552 Y9.3521 
G01 X41.2264 Y10.4809 
G01 X40.7973 Y10.4809 
G01 X40.7973 Y10.2823 
G01 X40.7799 Y10.2403 
G01 X40.7477 Y10.2081 
G01 X40.7057 Y10.1907 
G01 X39.8603 Y10.1907 
G01 X39.8183 Y10.2081 
G01 X39.7861 Y10.2403 
G01 X39.7687 Y10.2823 
G01 X39.7687 Y11.5277 
G01 X39.7861 Y11.5697 
G01 X39.8183 Y11.6019 
G00 Z2.5400 
G00 X3.3677 Y3.1595 
G01 Z-0.1778 F254.00 
G01 X3.2625 Y3.3043 F508.00 
G01 X3.1813 Y3.4637 
G01 X3.1260 Y3.6338 
G01 X3.0980 Y3.8105 
G01 X3.0980 Y3.9895 
G01 X3.1260 Y4.1662 
G01 X3.1813 Y4.3363 
G01 X3.2625 Y4.4957 
G01 X3.3677 Y4.6405 
G01 X3.4942 Y4.7670 
G01 X3.6389 Y4.8721 
G01 X3.7983 Y4.9534 
G01 X3.9685 Y5.0087 
G01 X4.1452 Y5.0366 
G01 X6.1148 Y5.0366 
G01 X6.2915 Y5.0087 
G01 X6.3813 Y4.9795 
G01 X15.4180 Y4.9795 
G01 X15.5858 Y4.9529 
G01 X15.7474 Y4.9004 
G01 X15.8988 Y4.8233 
G01 X16.0362 Y4.7234 
G01 X18.3554 Y2.4042 
G01 X18.4553 Y2.2668 
G01 X18.5324 Y2.1154 
G01 X18.5849 Y1.9538 
G01 X18.6115 Y1.7860 
G01 X18.6115 Y1.6160 
G01 X18.5983 Y1.5327 
G01 X18.5983 Y-0.0329 
G01 X18.5720 Y-0.1987 
G01 X18.5202 Y-0.3583 
G01 X18.4440 Y-0.5079 
G01 X18.3453 Y-0.6436 
G01 X18.2266 Y-0.7623 
G01 X18.0909 Y-0.8610 
G01 X17.9413 Y-0.9372 
G01 X17.7817 Y-0.9890 
G01 X17.6159 Y-1.0153 
G01 X17.4481 Y-1.0153 
G01 X17.2823 Y-0.9890 
G01 X17.1227 Y-0.9372 
G01 X16.9731 Y-0.8610 
G01 X16.8374 Y-0.7623 
G01 X16.7187 Y-0.6436 
G01 X16.6200 Y-0.5079 
G01 X16.5438 Y-0.3583 
G01 X16.4920 Y-0.1987 
G01 X16.4657 Y-0.0329 
G01 X16.4657 Y1.2407 
G01 X14.8859 Y2.8205 
G01 X6.3813 Y2.8205 
G01 X6.2915 Y2.7913 
G01 X6.1148 Y2.7633 
G01 X4.1452 Y2.7633 
G01 X3.9685 Y2.7913 
G01 X3.7983 Y2.8466 
G01 X3.6389 Y2.9278 
G01 X3.4942 Y3.0330 
G01 X3.3677 Y3.1595 
G00 Z2.5400 
G00 X3.4877 Y7.5993 
G01 Z-0.1778 F254.00 
G01 X3.2881 Y7.6642 F508.00 
G01 X3.1011 Y7.7595 
G01 X2.9313 Y7.8829 
G01 X0.5313 Y10.2829 
G01 X0.3829 Y10.4313 
G01 X0.2595 Y10.6011 
G01 X0.1642 Y10.7881 
G01 X0.0993 Y10.9877 
G01 X0.0665 Y11.1950 
G01 X0.0665 Y17.0050 
G01 X0.0993 Y17.2123 
G01 X0.1642 Y17.4119 
G01 X0.2595 Y17.5989 
G01 X0.3829 Y17.7687 
G01 X2.3829 Y19.7687 
G01 X2.5313 Y19.9171 
G01 X2.7011 Y20.0405 
G01 X2.8881 Y20.1358 
G01 X3.0877 Y20.2007 
G01 X3.2950 Y20.2335 
G01 X7.3476 Y20.2335 
G01 X7.8829 Y20.7687 
G01 X8.0313 Y20.9171 
G01 X8.2011 Y21.0405 
G01 X8.3881 Y21.1358 
G01 X8.5877 Y21.2007 
G01 X8.7950 Y21.2335 
G01 X11.1487 Y21.2335 
G01 X11.1487 Y21.5910 
G01 X11.1854 Y21.6797 
G01 X11.2533 Y21.7476 
G01 X11.3420 Y21.7843 
G01 X13.2380 Y21.7843 
G01 X13.3267 Y21.7476 
G01 X13.3946 Y21.6797 
G01 X13.4313 Y21.5910 
G01 X13.4313 Y20.6404 
G01 X13.5258 Y20.4549 
G01 X13.5907 Y20.2553 
G01 X13.6235 Y20.0480 
G01 X13.6235 Y19.8380 
G01 X13.5907 Y19.6307 
G01 X13.5258 Y19.4311 
G01 X13.4313 Y19.2456 
G01 X13.4313 Y18.2950 
G01 X13.3946 Y18.2063 
G01 X13.3267 Y18.1384 
G01 X13.2380 Y18.1017 
G01 X11.3420 Y18.1017 
G01 X11.2533 Y18.1384 
G01 X11.1854 Y18.2063 
G01 X11.1487 Y18.2950 
G01 X11.1487 Y18.5665 
G01 X9.4524 Y18.5665 
G01 X8.7687 Y17.8829 
G01 X8.5989 Y17.7595 
G01 X8.4119 Y17.6642 
G01 X8.2123 Y17.5993 
G01 X8.0049 Y17.5665 
G01 X3.9524 Y17.5665 
G01 X2.7335 Y16.3476 
G01 X2.7335 Y11.8524 
G01 X4.3524 Y10.2335 
G01 X5.2350 Y10.2335 
G01 X5.4423 Y10.2007 
G01 X5.6419 Y10.1358 
G01 X5.8289 Y10.0405 
G01 X5.8342 Y10.0366 
G01 X6.1148 Y10.0366 
G01 X6.2915 Y10.0087 
G01 X6.4617 Y9.9534 
G01 X6.6211 Y9.8721 
G01 X6.7658 Y9.7670 
G01 X6.8923 Y9.6405 
G01 X6.9975 Y9.4957 
G01 X7.0787 Y9.3363 
G01 X7.1340 Y9.1662 
G01 X7.1620 Y8.9895 
G01 X7.1620 Y8.8105 
G01 X7.1340 Y8.6338 
G01 X7.0787 Y8.4637 
G01 X6.9975 Y8.3043 
G01 X6.8923 Y8.1595 
G01 X6.7658 Y8.0330 
G01 X6.6211 Y7.9279 
G01 X6.4617 Y7.8466 
G01 X6.2915 Y7.7913 
G01 X6.1148 Y7.7633 
G01 X5.8342 Y7.7633 
G01 X5.8289 Y7.7595 
G01 X5.6419 Y7.6642 
G01 X5.4423 Y7.5993 
G01 X5.2350 Y7.5665 
G01 X3.6950 Y7.5665 
G01 X3.4877 Y7.5993 
G00 Z2.5400 
G00 X3.4942 Y13.0330 
G01 Z-0.1778 F254.00 
G01 X3.3677 Y13.1595 F508.00 
G01 X3.2625 Y13.3043 
G01 X3.1813 Y13.4637 
G01 X3.1260 Y13.6338 
G01 X3.0980 Y13.8105 
G01 X3.0980 Y13.9895 
G01 X3.1260 Y14.1662 
G01 X3.1813 Y14.3363 
G01 X3.2625 Y14.4957 
G01 X3.3677 Y14.6405 
G01 X3.4942 Y14.7670 
G01 X3.6389 Y14.8721 
G01 X3.7983 Y14.9534 
G01 X3.9685 Y15.0087 
G01 X4.1452 Y15.0366 
G01 X4.4258 Y15.0366 
G01 X4.4311 Y15.0405 
G01 X4.6181 Y15.1358 
G01 X4.8177 Y15.2007 
G01 X5.0250 Y15.2335 
G01 X10.0936 Y15.2335 
G01 X11.1677 Y16.3076 
G01 X11.1677 Y17.2110 
G01 X11.2044 Y17.2997 
G01 X11.2723 Y17.3676 
G01 X11.3610 Y17.4043 
G01 X13.2570 Y17.4043 
G01 X13.3457 Y17.3676 
G01 X13.4136 Y17.2997 
G01 X13.4503 Y17.2110 
G01 X13.4503 Y16.2604 
G01 X13.5448 Y16.0749 
G01 X13.6097 Y15.8753 
G01 X13.6425 Y15.6679 
G01 X13.6425 Y15.4580 
G01 X13.6097 Y15.2507 
G01 X13.5448 Y15.0511 
G01 X13.4503 Y14.8656 
G01 X13.4503 Y13.9150 
G01 X13.4136 Y13.8263 
G01 X13.3457 Y13.7584 
G01 X13.2570 Y13.7217 
G01 X12.4641 Y13.7217 
G01 X14.1524 Y12.0335 
G01 X19.1049 Y12.0335 
G01 X19.3123 Y12.0007 
G01 X19.5119 Y11.9358 
G01 X19.5643 Y11.9091 
G01 X19.6627 Y11.9592 
G01 X19.8223 Y12.0110 
G01 X19.9881 Y12.0373 
G01 X20.1559 Y12.0373 
G01 X20.3217 Y12.0110 
G01 X20.4813 Y11.9592 
G01 X20.6309 Y11.8830 
G01 X20.7666 Y11.7843 
G01 X20.8853 Y11.6656 
G01 X20.9840 Y11.5299 
G01 X21.0602 Y11.3803 
G01 X21.1120 Y11.2207 
G01 X21.1383 Y11.0549 
G01 X21.1383 Y10.4291 
G01 X21.2125 Y10.3269 
G01 X21.3078 Y10.1399 
G01 X21.3727 Y9.9403 
G01 X21.4055 Y9.7330 
G01 X21.4055 Y9.2160 
G01 X21.3727 Y9.0087 
G01 X21.3078 Y8.8091 
G01 X21.2125 Y8.6221 
G01 X21.0891 Y8.4523 
G01 X20.9407 Y8.3039 
G01 X20.7709 Y8.1805 
G01 X20.5839 Y8.0852 
G01 X20.3843 Y8.0203 
G01 X20.1770 Y7.9875 
G01 X19.9670 Y7.9875 
G01 X19.7597 Y8.0203 
G01 X19.5601 Y8.0852 
G01 X19.3731 Y8.1805 
G01 X19.2033 Y8.3039 
G01 X19.0549 Y8.4523 
G01 X18.9315 Y8.6221 
G01 X18.8362 Y8.8091 
G01 X18.7713 Y9.0087 
G01 X18.7649 Y9.0492 
G01 X18.4476 Y9.3665 
G01 X13.4950 Y9.3665 
G01 X13.2877 Y9.3993 
G01 X13.0881 Y9.4642 
G01 X12.9011 Y9.5595 
G01 X12.7313 Y9.6829 
G01 X9.8476 Y12.5665 
G01 X5.0250 Y12.5665 
G01 X4.8177 Y12.5993 
G01 X4.6181 Y12.6642 
G01 X4.4311 Y12.7595 
G01 X4.4258 Y12.7634 
G01 X4.1452 Y12.7634 
G01 X3.9685 Y12.7913 
G01 X3.7983 Y12.8466 
G01 X3.6389 Y12.9278 
G01 X3.4942 Y13.0330 
G00 Z2.5400 
G00 X16.8044 Y13.8263 
G01 Z-0.1778 F254.00 
G01 X16.7677 Y13.9150 F508.00 
G01 X16.7677 Y17.2110 
G01 X16.8044 Y17.2997 
G01 X16.8723 Y17.3676 
G01 X16.9610 Y17.4043 
G01 X18.8570 Y17.4043 
G01 X18.9457 Y17.3676 
G01 X19.0136 Y17.2997 
G01 X19.0503 Y17.2110 
G01 X19.0503 Y16.2493 
G01 X19.1896 Y16.2493 
G01 X20.6393 Y17.6990 
G01 X20.7621 Y17.7810 
G01 X20.8984 Y17.8375 
G01 X21.0432 Y17.8663 
G01 X22.7337 Y17.8663 
G01 X22.7337 Y18.0550 
G01 X22.7704 Y18.1437 
G01 X22.8383 Y18.2116 
G01 X22.9270 Y18.2483 
G01 X24.5430 Y18.2483 
G01 X24.6317 Y18.2116 
G01 X24.6996 Y18.1437 
G01 X24.7363 Y18.0550 
G01 X24.7363 Y16.1790 
G01 X24.6996 Y16.0903 
G01 X24.6317 Y16.0224 
G01 X24.5430 Y15.9857 
G01 X22.9270 Y15.9857 
G01 X22.8383 Y16.0224 
G01 X22.7704 Y16.0903 
G01 X22.7337 Y16.1790 
G01 X22.7337 Y16.3677 
G01 X21.4274 Y16.3677 
G01 X20.0820 Y15.0223 
G01 X19.9777 Y14.9180 
G01 X19.8549 Y14.8360 
G01 X19.7186 Y14.7795 
G01 X19.5738 Y14.7507 
G01 X19.0503 Y14.7507 
G01 X19.0503 Y13.9150 
G01 X19.0136 Y13.8263 
G01 X18.9457 Y13.7584 
G01 X18.8570 Y13.7217 
G01 X16.9610 Y13.7217 
G01 X16.8723 Y13.7584 
G01 X16.8044 Y13.8263 
G00 Z2.5400 
G00 X16.8533 Y18.1384 
G01 Z-0.1778 F254.00 
G01 X16.7854 Y18.2063 F508.00 
G01 X16.7487 Y18.2950 
G01 X16.7487 Y21.5910 
G01 X16.7854 Y21.6797 
G01 X16.8533 Y21.7476 
G01 X16.9420 Y21.7843 
G01 X18.8380 Y21.7843 
G01 X18.9267 Y21.7476 
G01 X18.9946 Y21.6797 
G01 X19.0313 Y21.5910 
G01 X19.0313 Y20.4063 
G01 X22.7337 Y20.4063 
G01 X22.7337 Y20.5950 
G01 X22.7704 Y20.6837 
G01 X22.8383 Y20.7516 
G01 X22.9270 Y20.7883 
G01 X24.5430 Y20.7883 
G01 X24.6317 Y20.7516 
G01 X24.6996 Y20.6837 
G01 X24.7363 Y20.5950 
G01 X24.7363 Y18.7190 
G01 X24.6996 Y18.6303 
G01 X24.6317 Y18.5624 
G01 X24.5430 Y18.5257 
G01 X22.9270 Y18.5257 
G01 X22.8383 Y18.5624 
G01 X22.7704 Y18.6303 
G01 X22.7337 Y18.7190 
G01 X22.7337 Y18.9077 
G01 X19.0313 Y18.9077 
G01 X19.0313 Y18.2950 
G01 X18.9946 Y18.2063 
G01 X18.9267 Y18.1384 
G01 X18.8380 Y18.1017 
G01 X16.9420 Y18.1017 
G01 X16.8533 Y18.1384 
G00 Z2.5400 
G00 X22.8383 Y15.6716 
G01 Z-0.1778 F254.00 
G01 X22.9270 Y15.7083 F508.00 
G01 X24.5430 Y15.7083 
G01 X24.6317 Y15.6716 
G01 X24.6996 Y15.6037 
G01 X24.7363 Y15.5150 
G01 X24.7363 Y13.6390 
G01 X24.6996 Y13.5503 
G01 X24.6317 Y13.4824 
G01 X24.5430 Y13.4457 
G01 X22.9270 Y13.4457 
G01 X22.8383 Y13.4824 
G01 X22.7704 Y13.5503 
G01 X22.7337 Y13.6390 
G01 X22.7337 Y15.5150 
G01 X22.7704 Y15.6037 
G01 X22.8383 Y15.6716 
G00 Z2.5400 
G00 X32.1283 Y15.6716 
G01 Z-0.1778 F254.00 
G01 X32.2170 Y15.7083 F508.00 
G01 X33.8330 Y15.7083 
G01 X33.9217 Y15.6716 
G01 X33.9896 Y15.6037 
G01 X34.0263 Y15.5150 
G01 X34.0263 Y13.6390 
G01 X33.9896 Y13.5503 
G01 X33.9217 Y13.4824 
G01 X33.8330 Y13.4457 
G01 X33.5711 Y13.4457 
G01 X33.5711 Y4.2142 
G01 X35.0487 Y2.7366 
G01 X35.0623 Y2.7410 
G01 X35.2281 Y2.7673 
G01 X35.3959 Y2.7673 
G01 X35.5617 Y2.7410 
G01 X35.7213 Y2.6892 
G01 X35.8709 Y2.6130 
G01 X36.0066 Y2.5143 
G01 X36.1253 Y2.3956 
G01 X36.2240 Y2.2599 
G01 X36.2305 Y2.2471 
G01 X41.3148 Y2.2471 
G01 X42.9307 Y3.8630 
G01 X42.7372 Y4.0034 
G01 X42.5684 Y4.1722 
G01 X42.4281 Y4.3653 
G01 X42.3198 Y4.5779 
G01 X42.2460 Y4.8049 
G01 X42.2087 Y5.0407 
G01 X42.2087 Y5.2793 
G01 X42.2460 Y5.5151 
G01 X42.3198 Y5.7421 
G01 X42.4281 Y5.9547 
G01 X42.5684 Y6.1478 
G01 X42.7372 Y6.3166 
G01 X42.9303 Y6.4569 
G01 X43.1429 Y6.5652 
G01 X43.3699 Y6.6390 
G01 X43.6057 Y6.6763 
G01 X46.3943 Y6.6763 
G01 X46.6301 Y6.6390 
G01 X46.8571 Y6.5652 
G01 X47.0697 Y6.4569 
G01 X47.2628 Y6.3166 
G01 X47.4316 Y6.1478 
G01 X47.5719 Y5.9547 
G01 X47.6802 Y5.7421 
G01 X47.7540 Y5.5151 
G01 X47.7913 Y5.2793 
G01 X47.7913 Y5.0407 
G01 X47.7540 Y4.8049 
G01 X47.6802 Y4.5779 
G01 X47.5719 Y4.3653 
G01 X47.4316 Y4.1722 
G01 X47.2628 Y4.0034 
G01 X47.0697 Y3.8631 
G01 X46.8571 Y3.7548 
G01 X46.6301 Y3.6810 
G01 X46.3943 Y3.6437 
G01 X44.2560 Y3.6437 
G01 X41.8763 Y1.2640 
G01 X41.7518 Y1.1921 
G01 X41.6129 Y1.1549 
G01 X36.3783 Y1.1549 
G01 X36.3783 Y-0.0329 
G01 X36.3520 Y-0.1987 
G01 X36.3002 Y-0.3583 
G01 X36.2240 Y-0.5079 
G01 X36.1253 Y-0.6436 
G01 X36.0066 Y-0.7623 
G01 X35.8709 Y-0.8610 
G01 X35.7213 Y-0.9372 
G01 X35.5617 Y-0.9890 
G01 X35.3959 Y-1.0153 
G01 X35.2281 Y-1.0153 
G01 X35.0623 Y-0.9890 
G01 X34.9027 Y-0.9372 
G01 X34.7531 Y-0.8610 
G01 X34.6174 Y-0.7623 
G01 X34.4987 Y-0.6436 
G01 X34.4000 Y-0.5079 
G01 X34.3238 Y-0.3583 
G01 X34.2720 Y-0.1987 
G01 X34.2457 Y-0.0329 
G01 X34.2457 Y1.7849 
G01 X34.2720 Y1.9507 
G01 X34.2764 Y1.9643 
G01 X32.5880 Y3.6527 
G01 X32.5161 Y3.7772 
G01 X32.4789 Y3.9161 
G01 X32.4789 Y13.4457 
G01 X32.2170 Y13.4457 
G01 X32.1283 Y13.4824 
G01 X32.0604 Y13.5503 
G01 X32.0237 Y13.6390 
G01 X32.0237 Y15.5150 
G01 X32.0604 Y15.6037 
G01 X32.1283 Y15.6716 
G00 Z2.5400 
G00 X32.1283 Y16.0224 
G01 Z-0.1778 F254.00 
G01 X32.0604 Y16.0903 F508.00 
G01 X32.0237 Y16.1790 
G01 X32.0237 Y18.0550 
G01 X32.0604 Y18.1437 
G01 X32.1283 Y18.2116 
G01 X32.2170 Y18.2483 
G01 X33.8330 Y18.2483 
G01 X33.9217 Y18.2116 
G01 X33.9896 Y18.1437 
G01 X34.0263 Y18.0550 
G01 X34.0263 Y17.6631 
G01 X35.0587 Y17.6631 
G01 X35.0587 Y17.7880 
G01 X35.0954 Y17.8767 
G01 X35.1633 Y17.9446 
G01 X35.2520 Y17.9813 
G01 X36.1480 Y17.9813 
G01 X36.2367 Y17.9446 
G01 X36.3046 Y17.8767 
G01 X36.3413 Y17.7880 
G01 X36.3413 Y16.4920 
G01 X36.3046 Y16.4033 
G01 X36.2461 Y16.3448 
G01 X36.2461 Y15.5262 
G01 X38.1262 Y13.6461 
G01 X42.3146 Y13.6461 
G01 X42.3198 Y13.6621 
G01 X42.4281 Y13.8747 
G01 X42.5684 Y14.0678 
G01 X42.7372 Y14.2366 
G01 X42.9303 Y14.3769 
G01 X43.1429 Y14.4852 
G01 X43.3699 Y14.5590 
G01 X43.6057 Y14.5963 
G01 X46.3943 Y14.5963 
G01 X46.6301 Y14.5590 
G01 X46.8571 Y14.4852 
G01 X47.0697 Y14.3769 
G01 X47.2628 Y14.2366 
G01 X47.4316 Y14.0678 
G01 X47.5719 Y13.8747 
G01 X47.6802 Y13.6621 
G01 X47.7540 Y13.4351 
G01 X47.7913 Y13.1993 
G01 X47.7913 Y12.9607 
G01 X47.7540 Y12.7249 
G01 X47.6802 Y12.4979 
G01 X47.5719 Y12.2853 
G01 X47.4316 Y12.0922 
G01 X47.2628 Y11.9234 
G01 X47.0697 Y11.7831 
G01 X46.8571 Y11.6748 
G01 X46.6301 Y11.6010 
G01 X46.3943 Y11.5637 
G01 X43.6057 Y11.5637 
G01 X43.3699 Y11.6010 
G01 X43.1429 Y11.6748 
G01 X42.9303 Y11.7831 
G01 X42.7372 Y11.9234 
G01 X42.5684 Y12.0922 
G01 X42.4281 Y12.2853 
G01 X42.3198 Y12.4979 
G01 X42.3016 Y12.5539 
G01 X37.8281 Y12.5539 
G01 X37.6892 Y12.5911 
G01 X37.5647 Y12.6630 
G01 X37.4630 Y12.7647 
G01 X35.2630 Y14.9647 
G01 X35.1911 Y15.0892 
G01 X35.1539 Y15.2281 
G01 X35.1539 Y16.3448 
G01 X35.0954 Y16.4033 
G01 X35.0587 Y16.4920 
G01 X35.0587 Y16.5709 
G01 X34.0263 Y16.5709 
G01 X34.0263 Y16.1790 
G01 X33.9896 Y16.0903 
G01 X33.9217 Y16.0224 
G01 X33.8330 Y15.9857 
G01 X32.2170 Y15.9857 
G01 X32.1283 Y16.0224 
G00 Z2.5400 
G00 X32.1283 Y18.5624 
G01 Z-0.1778 F254.00 
G01 X32.0604 Y18.6303 F508.00 
G01 X32.0237 Y18.7190 
G01 X32.0237 Y20.5950 
G01 X32.0604 Y20.6837 
G01 X32.1283 Y20.7516 
G01 X32.2170 Y20.7883 
G01 X33.8330 Y20.7883 
G01 X33.9217 Y20.7516 
G01 X33.9896 Y20.6837 
G01 X34.0263 Y20.5950 
G01 X34.0263 Y18.7190 
G01 X33.9896 Y18.6303 
G01 X33.9217 Y18.5624 
G01 X33.8330 Y18.5257 
G01 X32.2170 Y18.5257 
G01 X32.1283 Y18.5624 
G00 Z2.5400 
G00 X36.9633 Y17.9446 
G01 Z-0.1778 F254.00 
G01 X37.0520 Y17.9813 F508.00 
G01 X37.9480 Y17.9813 
G01 X38.0367 Y17.9446 
G01 X38.1046 Y17.8767 
G01 X38.1413 Y17.7880 
G01 X38.1413 Y17.6776 
G01 X42.3197 Y17.6219 
G01 X42.4281 Y17.8347 
G01 X42.5684 Y18.0278 
G01 X42.7372 Y18.1966 
G01 X42.9303 Y18.3369 
G01 X43.1429 Y18.4452 
G01 X43.3699 Y18.5190 
G01 X43.6057 Y18.5563 
G01 X46.3943 Y18.5563 
G01 X46.6301 Y18.5190 
G01 X46.8571 Y18.4452 
G01 X47.0697 Y18.3369 
G01 X47.2628 Y18.1966 
G01 X47.4316 Y18.0278 
G01 X47.5719 Y17.8347 
G01 X47.6802 Y17.6221 
G01 X47.7540 Y17.3951 
G01 X47.7913 Y17.1593 
G01 X47.7913 Y16.9207 
G01 X47.7540 Y16.6849 
G01 X47.6802 Y16.4579 
G01 X47.5719 Y16.2453 
G01 X47.4316 Y16.0522 
G01 X47.2628 Y15.8834 
G01 X47.0697 Y15.7431 
G01 X46.8571 Y15.6348 
G01 X46.6301 Y15.5610 
G01 X46.3943 Y15.5237 
G01 X43.6057 Y15.5237 
G01 X43.3699 Y15.5610 
G01 X43.1429 Y15.6348 
G01 X42.9303 Y15.7431 
G01 X42.7372 Y15.8834 
G01 X42.5684 Y16.0522 
G01 X42.4281 Y16.2453 
G01 X42.3198 Y16.4579 
G01 X42.2964 Y16.5299 
G01 X38.1413 Y16.5853 
G01 X38.1413 Y16.4920 
G01 X38.1046 Y16.4033 
G01 X38.0367 Y16.3354 
G01 X37.9480 Y16.2987 
G01 X37.0520 Y16.2987 
G01 X36.9633 Y16.3354 
G01 X36.8954 Y16.4033 
G01 X36.8587 Y16.4920 
G01 X36.8587 Y17.7880 
G01 X36.8954 Y17.8767 
G01 X36.9633 Y17.9446 
G00 Z2.5400 
G00 X36.1253 Y11.6656 
G01 Z-0.1778 F254.00 
G01 X36.2240 Y11.5299 F508.00 
G01 X36.2641 Y11.4511 
G01 X37.8417 Y11.4511 
G01 X37.8417 Y11.5530 
G01 X37.8784 Y11.6417 
G01 X37.9463 Y11.7096 
G01 X38.0350 Y11.7463 
G01 X38.9310 Y11.7463 
G01 X39.0197 Y11.7096 
G01 X39.0876 Y11.6417 
G01 X39.1243 Y11.5530 
G01 X39.1243 Y10.2570 
G01 X39.0876 Y10.1683 
G01 X39.0197 Y10.1004 
G01 X38.9310 Y10.0637 
G01 X38.0350 Y10.0637 
G01 X37.9463 Y10.1004 
G01 X37.8784 Y10.1683 
G01 X37.8417 Y10.2570 
G01 X37.8417 Y10.3589 
G01 X36.3783 Y10.3589 
G01 X36.3783 Y9.2371 
G01 X36.3520 Y9.0713 
G01 X36.3002 Y8.9117 
G01 X36.2240 Y8.7621 
G01 X36.1253 Y8.6264 
G01 X36.0066 Y8.5077 
G01 X35.8709 Y8.4090 
G01 X35.7213 Y8.3328 
G01 X35.5617 Y8.2810 
G01 X35.3959 Y8.2547 
G01 X35.2281 Y8.2547 
G01 X35.0623 Y8.2810 
G01 X34.9027 Y8.3328 
G01 X34.7531 Y8.4090 
G01 X34.6174 Y8.5077 
G01 X34.4987 Y8.6264 
G01 X34.4000 Y8.7621 
G01 X34.3238 Y8.9117 
G01 X34.2720 Y9.0713 
G01 X34.2457 Y9.2371 
G01 X34.2457 Y11.0549 
G01 X34.2720 Y11.2207 
G01 X34.3238 Y11.3803 
G01 X34.4000 Y11.5299 
G01 X34.4987 Y11.6656 
G01 X34.6174 Y11.7843 
G01 X34.7531 Y11.8830 
G01 X34.9027 Y11.9592 
G01 X35.0623 Y12.0110 
G01 X35.2281 Y12.0373 
G01 X35.3959 Y12.0373 
G01 X35.5617 Y12.0110 
G01 X35.7213 Y11.9592 
G01 X35.8709 Y11.8830 
G01 X36.0066 Y11.7843 
G01 X36.1253 Y11.6656 
G00 Z2.5400 
G00 X39.6784 Y11.6417 
G01 Z-0.1778 F254.00 
G01 X39.7463 Y11.7096 F508.00 
G01 X39.8350 Y11.7463 
G01 X40.7310 Y11.7463 
G01 X40.8197 Y11.7096 
G01 X40.8876 Y11.6417 
G01 X40.9243 Y11.5530 
G01 X40.9243 Y11.4461 
G01 X41.4719 Y11.4461 
G01 X41.6108 Y11.4089 
G01 X41.7353 Y11.3370 
G01 X41.8370 Y11.2353 
G01 X42.7711 Y10.3012 
G01 X42.9303 Y10.4169 
G01 X43.1429 Y10.5252 
G01 X43.3699 Y10.5990 
G01 X43.6057 Y10.6363 
G01 X46.3943 Y10.6363 
G01 X46.6301 Y10.5990 
G01 X46.8571 Y10.5252 
G01 X47.0697 Y10.4169 
G01 X47.2628 Y10.2766 
G01 X47.4316 Y10.1078 
G01 X47.5719 Y9.9147 
G01 X47.6802 Y9.7021 
G01 X47.7540 Y9.4751 
G01 X47.7913 Y9.2393 
G01 X47.7913 Y9.0007 
G01 X47.7540 Y8.7649 
G01 X47.6802 Y8.5379 
G01 X47.5719 Y8.3253 
G01 X47.4316 Y8.1322 
G01 X47.2628 Y7.9634 
G01 X47.0697 Y7.8231 
G01 X46.8571 Y7.7148 
G01 X46.6301 Y7.6410 
G01 X46.3943 Y7.6037 
G01 X43.6057 Y7.6037 
G01 X43.3699 Y7.6410 
G01 X43.1429 Y7.7148 
G01 X42.9303 Y7.8231 
G01 X42.7372 Y7.9634 
G01 X42.5684 Y8.1322 
G01 X42.4281 Y8.3253 
G01 X42.3198 Y8.5379 
G01 X42.2460 Y8.7649 
G01 X42.2087 Y9.0007 
G01 X42.2087 Y9.2393 
G01 X42.2196 Y9.3081 
G01 X41.1738 Y10.3539 
G01 X40.9243 Y10.3539 
G01 X40.9243 Y10.2570 
G01 X40.8876 Y10.1683 
G01 X40.8197 Y10.1004 
G01 X40.7310 Y10.0637 
G01 X39.8350 Y10.0637 
G01 X39.7463 Y10.1004 
G01 X39.6784 Y10.1683 
G01 X39.6417 Y10.2570 
G01 X39.6417 Y11.5530 
G01 X39.6784 Y11.6417 
G00 Z2.5400 
G00 X3.2708 Y3.0768 
G01 Z-0.1778 F254.00 
G01 X3.1539 Y3.2377 F508.00 
G01 X3.0636 Y3.4149 
G01 X3.0021 Y3.6041 
G01 X2.9710 Y3.8005 
G01 X2.9710 Y3.9994 
G01 X3.0021 Y4.1959 
G01 X3.0636 Y4.3851 
G01 X3.1539 Y4.5623 
G01 X3.2708 Y4.7232 
G01 X3.4114 Y4.8639 
G01 X3.5724 Y4.9808 
G01 X3.7496 Y5.0711 
G01 X3.9387 Y5.1325 
G01 X4.1352 Y5.1636 
G01 X6.1248 Y5.1636 
G01 X6.3213 Y5.1325 
G01 X6.4014 Y5.1065 
G01 X15.4280 Y5.1065 
G01 X15.6155 Y5.0768 
G01 X15.7961 Y5.0181 
G01 X15.9653 Y4.9319 
G01 X16.1190 Y4.8203 
G01 X18.4523 Y2.4870 
G01 X18.5639 Y2.3333 
G01 X18.6501 Y2.1641 
G01 X18.7088 Y1.9835 
G01 X18.7385 Y1.7960 
G01 X18.7385 Y1.6060 
G01 X18.7253 Y1.5227 
G01 X18.7253 Y-0.0429 
G01 X18.6959 Y-0.2284 
G01 X18.6379 Y-0.4071 
G01 X18.5526 Y-0.5744 
G01 X18.4422 Y-0.7264 
G01 X18.3094 Y-0.8592 
G01 X18.1574 Y-0.9696 
G01 X17.9901 Y-1.0549 
G01 X17.8114 Y-1.1129 
G01 X17.6259 Y-1.1423 
G01 X17.4381 Y-1.1423 
G01 X17.2526 Y-1.1129 
G01 X17.0739 Y-1.0549 
G01 X16.9066 Y-0.9696 
G01 X16.7546 Y-0.8592 
G01 X16.6218 Y-0.7264 
G01 X16.5114 Y-0.5744 
G01 X16.4261 Y-0.4071 
G01 X16.3681 Y-0.2284 
G01 X16.3387 Y-0.0429 
G01 X16.3387 Y1.1880 
G01 X14.8332 Y2.6935 
G01 X6.4014 Y2.6935 
G01 X6.3213 Y2.6675 
G01 X6.1248 Y2.6364 
G01 X4.1352 Y2.6364 
G01 X3.9387 Y2.6675 
G01 X3.7496 Y2.7289 
G01 X3.5724 Y2.8192 
G01 X3.4114 Y2.9361 
G01 X3.2708 Y3.0768 
G00 Z2.5400 
G00 X3.2394 Y7.5465 
G01 Z-0.1778 F254.00 
G01 X3.0345 Y7.6509 F508.00 
G01 X2.8485 Y7.7860 
G01 X0.4485 Y10.1860 
G01 X0.2860 Y10.3485 
G01 X0.1509 Y10.5345 
G01 X0.0465 Y10.7394 
G01 X-0.0245 Y10.9580 
G01 X-0.0605 Y11.1851 
G01 X-0.0605 Y17.0149 
G01 X-0.0245 Y17.2420 
G01 X0.0465 Y17.4606 
G01 X0.1509 Y17.6655 
G01 X0.2860 Y17.8514 
G01 X2.2860 Y19.8514 
G01 X2.4485 Y20.0140 
G01 X2.6345 Y20.1491 
G01 X2.8394 Y20.2535 
G01 X3.0580 Y20.3245 
G01 X3.2851 Y20.3605 
G01 X7.2950 Y20.3605 
G01 X7.7860 Y20.8514 
G01 X7.9485 Y21.0140 
G01 X8.1345 Y21.1491 
G01 X8.3394 Y21.2535 
G01 X8.5580 Y21.3245 
G01 X8.7851 Y21.3605 
G01 X11.0217 Y21.3605 
G01 X11.0217 Y21.5915 
G01 X11.0468 Y21.6852 
G01 X11.0953 Y21.7691 
G01 X11.1639 Y21.8377 
G01 X11.2478 Y21.8862 
G01 X11.3415 Y21.9113 
G01 X13.2385 Y21.9113 
G01 X13.3322 Y21.8862 
G01 X13.4161 Y21.8377 
G01 X13.4847 Y21.7691 
G01 X13.5332 Y21.6852 
G01 X13.5583 Y21.5915 
G01 X13.5583 Y20.6709 
G01 X13.6435 Y20.5036 
G01 X13.7145 Y20.2850 
G01 X13.7505 Y20.0579 
G01 X13.7505 Y19.8281 
G01 X13.7145 Y19.6010 
G01 X13.6435 Y19.3824 
G01 X13.5583 Y19.2151 
G01 X13.5583 Y18.2945 
G01 X13.5332 Y18.2008 
G01 X13.4847 Y18.1169 
G01 X13.4161 Y18.0483 
G01 X13.3322 Y17.9998 
G01 X13.2385 Y17.9747 
G01 X11.3415 Y17.9747 
G01 X11.2478 Y17.9998 
G01 X11.1639 Y18.0483 
G01 X11.0953 Y18.1169 
G01 X11.0468 Y18.2008 
G01 X11.0217 Y18.2945 
G01 X11.0217 Y18.4395 
G01 X9.5050 Y18.4395 
G01 X8.8514 Y17.7860 
G01 X8.6655 Y17.6509 
G01 X8.4606 Y17.5465 
G01 X8.2420 Y17.4755 
G01 X8.0149 Y17.4395 
G01 X4.0050 Y17.4395 
G01 X2.8605 Y16.2950 
G01 X2.8605 Y11.9050 
G01 X4.4050 Y10.3605 
G01 X5.2449 Y10.3605 
G01 X5.4720 Y10.3245 
G01 X5.6906 Y10.2535 
G01 X5.8670 Y10.1636 
G01 X6.1248 Y10.1636 
G01 X6.3213 Y10.1325 
G01 X6.5104 Y10.0711 
G01 X6.6876 Y9.9808 
G01 X6.8486 Y9.8639 
G01 X6.9892 Y9.7232 
G01 X7.1061 Y9.5623 
G01 X7.1964 Y9.3851 
G01 X7.2579 Y9.1959 
G01 X7.2890 Y8.9994 
G01 X7.2890 Y8.8005 
G01 X7.2579 Y8.6041 
G01 X7.1964 Y8.4149 
G01 X7.1061 Y8.2377 
G01 X6.9892 Y8.0768 
G01 X6.8486 Y7.9361 
G01 X6.6876 Y7.8192 
G01 X6.5104 Y7.7289 
G01 X6.3213 Y7.6675 
G01 X6.1248 Y7.6364 
G01 X5.8670 Y7.6364 
G01 X5.6906 Y7.5465 
G01 X5.4720 Y7.4755 
G01 X5.2449 Y7.4395 
G01 X3.6851 Y7.4395 
G01 X3.4580 Y7.4755 
G01 X3.2394 Y7.5465 
G00 Z2.5400 
G00 X3.2708 Y13.0768 
G01 Z-0.1778 F254.00 
G01 X3.1539 Y13.2377 F508.00 
G01 X3.0636 Y13.4149 
G01 X3.0021 Y13.6041 
G01 X2.9710 Y13.8005 
G01 X2.9710 Y13.9994 
G01 X3.0021 Y14.1959 
G01 X3.0636 Y14.3851 
G01 X3.1539 Y14.5623 
G01 X3.2708 Y14.7232 
G01 X3.4114 Y14.8639 
G01 X3.5724 Y14.9808 
G01 X3.7496 Y15.0711 
G01 X3.9387 Y15.1325 
G01 X4.1352 Y15.1636 
G01 X4.3930 Y15.1636 
G01 X4.5694 Y15.2535 
G01 X4.7880 Y15.3245 
G01 X5.0151 Y15.3605 
G01 X10.0410 Y15.3605 
G01 X11.0407 Y16.3602 
G01 X11.0407 Y17.2115 
G01 X11.0658 Y17.3052 
G01 X11.1143 Y17.3891 
G01 X11.1829 Y17.4577 
G01 X11.2668 Y17.5062 
G01 X11.3605 Y17.5313 
G01 X13.2575 Y17.5313 
G01 X13.3512 Y17.5062 
G01 X13.4351 Y17.4577 
G01 X13.5037 Y17.3891 
G01 X13.5522 Y17.3052 
G01 X13.5773 Y17.2115 
G01 X13.5773 Y16.2908 
G01 X13.6625 Y16.1236 
G01 X13.7335 Y15.9050 
G01 X13.7695 Y15.6779 
G01 X13.7695 Y15.4481 
G01 X13.7335 Y15.2210 
G01 X13.6625 Y15.0024 
G01 X13.5773 Y14.8352 
G01 X13.5773 Y13.9145 
G01 X13.5522 Y13.8208 
G01 X13.5037 Y13.7369 
G01 X13.4351 Y13.6683 
G01 X13.3512 Y13.6198 
G01 X13.2575 Y13.5947 
G01 X12.7707 Y13.5947 
G01 X14.2050 Y12.1605 
G01 X19.1149 Y12.1605 
G01 X19.3420 Y12.1245 
G01 X19.5606 Y12.0535 
G01 X19.5643 Y12.0516 
G01 X19.6139 Y12.0769 
G01 X19.7926 Y12.1349 
G01 X19.9781 Y12.1643 
G01 X20.1659 Y12.1643 
G01 X20.3514 Y12.1349 
G01 X20.5301 Y12.0769 
G01 X20.6974 Y11.9916 
G01 X20.8494 Y11.8812 
G01 X20.9822 Y11.7484 
G01 X21.0926 Y11.5964 
G01 X21.1779 Y11.4291 
G01 X21.2359 Y11.2504 
G01 X21.2653 Y11.0649 
G01 X21.2653 Y10.4703 
G01 X21.3211 Y10.3935 
G01 X21.4255 Y10.1886 
G01 X21.4965 Y9.9700 
G01 X21.5325 Y9.7429 
G01 X21.5325 Y9.2061 
G01 X21.4965 Y8.9790 
G01 X21.4255 Y8.7604 
G01 X21.3211 Y8.5555 
G01 X21.1860 Y8.3695 
G01 X21.0235 Y8.2070 
G01 X20.8375 Y8.0719 
G01 X20.6326 Y7.9675 
G01 X20.4140 Y7.8965 
G01 X20.1869 Y7.8605 
G01 X19.9571 Y7.8605 
G01 X19.7300 Y7.8965 
G01 X19.5114 Y7.9675 
G01 X19.3065 Y8.0719 
G01 X19.1205 Y8.2070 
G01 X18.9580 Y8.3695 
G01 X18.8229 Y8.5555 
G01 X18.7185 Y8.7604 
G01 X18.6475 Y8.9790 
G01 X18.6459 Y8.9886 
G01 X18.3950 Y9.2395 
G01 X13.4851 Y9.2395 
G01 X13.2580 Y9.2755 
G01 X13.0394 Y9.3465 
G01 X12.8345 Y9.4509 
G01 X12.6485 Y9.5860 
G01 X9.7950 Y12.4395 
G01 X5.0151 Y12.4395 
G01 X4.7880 Y12.4755 
G01 X4.5694 Y12.5465 
G01 X4.3930 Y12.6364 
G01 X4.1352 Y12.6364 
G01 X3.9387 Y12.6675 
G01 X3.7496 Y12.7289 
G01 X3.5724 Y12.8192 
G01 X3.4114 Y12.9361 
G01 X3.2708 Y13.0768 
G00 Z2.5400 
G00 X16.7143 Y13.7369 
G01 Z-0.1778 F254.00 
G01 X16.6658 Y13.8208 F508.00 
G01 X16.6407 Y13.9145 
G01 X16.6407 Y17.2115 
G01 X16.6658 Y17.3052 
G01 X16.7143 Y17.3891 
G01 X16.7829 Y17.4577 
G01 X16.8668 Y17.5062 
G01 X16.9605 Y17.5313 
G01 X18.8575 Y17.5313 
G01 X18.9512 Y17.5062 
G01 X19.0351 Y17.4577 
G01 X19.1037 Y17.3891 
G01 X19.1522 Y17.3052 
G01 X19.1773 Y17.2115 
G01 X19.1773 Y16.4166 
G01 X20.5584 Y17.7977 
G01 X20.7019 Y17.8936 
G01 X20.8614 Y17.9596 
G01 X21.0307 Y17.9933 
G01 X22.6067 Y17.9933 
G01 X22.6067 Y18.0555 
G01 X22.6318 Y18.1492 
G01 X22.6803 Y18.2331 
G01 X22.7489 Y18.3017 
G01 X22.8328 Y18.3502 
G01 X22.9265 Y18.3753 
G01 X24.5435 Y18.3753 
G01 X24.6372 Y18.3502 
G01 X24.7211 Y18.3017 
G01 X24.7897 Y18.2331 
G01 X24.8382 Y18.1492 
G01 X24.8633 Y18.0555 
G01 X24.8633 Y16.1785 
G01 X24.8382 Y16.0848 
G01 X24.7897 Y16.0009 
G01 X24.7211 Y15.9323 
G01 X24.6372 Y15.8838 
G01 X24.5435 Y15.8587 
G01 X22.9265 Y15.8587 
G01 X22.8328 Y15.8838 
G01 X22.7489 Y15.9323 
G01 X22.6803 Y16.0009 
G01 X22.6318 Y16.0848 
G01 X22.6067 Y16.1785 
G01 X22.6067 Y16.2407 
G01 X21.4800 Y16.2407 
G01 X20.1807 Y14.9414 
G01 X20.0586 Y14.8193 
G01 X19.9151 Y14.7234 
G01 X19.7556 Y14.6574 
G01 X19.5863 Y14.6237 
G01 X19.1773 Y14.6237 
G01 X19.1773 Y13.9145 
G01 X19.1522 Y13.8208 
G01 X19.1037 Y13.7369 
G01 X19.0351 Y13.6683 
G01 X18.9512 Y13.6198 
G01 X18.8575 Y13.5947 
G01 X16.9605 Y13.5947 
G01 X16.8668 Y13.6198 
G01 X16.7829 Y13.6683 
G01 X16.7143 Y13.7369 
G00 Z2.5400 
G00 X16.7639 Y18.0483 
G01 Z-0.1778 F254.00 
G01 X16.6953 Y18.1169 F508.00 
G01 X16.6468 Y18.2008 
G01 X16.6217 Y18.2945 
G01 X16.6217 Y21.5915 
G01 X16.6468 Y21.6852 
G01 X16.6953 Y21.7691 
G01 X16.7639 Y21.8377 
G01 X16.8478 Y21.8862 
G01 X16.9415 Y21.9113 
G01 X18.8385 Y21.9113 
G01 X18.9322 Y21.8862 
G01 X19.0161 Y21.8377 
G01 X19.0847 Y21.7691 
G01 X19.1332 Y21.6852 
G01 X19.1583 Y21.5915 
G01 X19.1583 Y20.5333 
G01 X22.6067 Y20.5333 
G01 X22.6067 Y20.5955 
G01 X22.6318 Y20.6892 
G01 X22.6803 Y20.7731 
G01 X22.7489 Y20.8417 
G01 X22.8328 Y20.8902 
G01 X22.9265 Y20.9153 
G01 X24.5435 Y20.9153 
G01 X24.6372 Y20.8902 
G01 X24.7211 Y20.8417 
G01 X24.7897 Y20.7731 
G01 X24.8382 Y20.6892 
G01 X24.8633 Y20.5955 
G01 X24.8633 Y18.7185 
G01 X24.8382 Y18.6248 
G01 X24.7897 Y18.5409 
G01 X24.7211 Y18.4723 
G01 X24.6372 Y18.4238 
G01 X24.5435 Y18.3987 
G01 X22.9265 Y18.3987 
G01 X22.8328 Y18.4238 
G01 X22.7489 Y18.4723 
G01 X22.6803 Y18.5409 
G01 X22.6318 Y18.6248 
G01 X22.6067 Y18.7185 
G01 X22.6067 Y18.7807 
G01 X19.1583 Y18.7807 
G01 X19.1583 Y18.2945 
G01 X19.1332 Y18.2008 
G01 X19.0847 Y18.1169 
G01 X19.0161 Y18.0483 
G01 X18.9322 Y17.9998 
G01 X18.8385 Y17.9747 
G01 X16.9415 Y17.9747 
G01 X16.8478 Y17.9998 
G01 X16.7639 Y18.0483 
G00 Z2.5400 
G00 X22.7489 Y15.7617 
G01 Z-0.1778 F254.00 
G01 X22.8328 Y15.8102 F508.00 
G01 X22.9265 Y15.8353 
G01 X24.5435 Y15.8353 
G01 X24.6372 Y15.8102 
G01 X24.7211 Y15.7617 
G01 X24.7897 Y15.6931 
G01 X24.8382 Y15.6092 
G01 X24.8633 Y15.5155 
G01 X24.8633 Y13.6385 
G01 X24.8382 Y13.5448 
G01 X24.7897 Y13.4609 
G01 X24.7211 Y13.3923 
G01 X24.6372 Y13.3438 
G01 X24.5435 Y13.3187 
G01 X22.9265 Y13.3187 
G01 X22.8328 Y13.3438 
G01 X22.7489 Y13.3923 
G01 X22.6803 Y13.4609 
G01 X22.6318 Y13.5448 
G01 X22.6067 Y13.6385 
G01 X22.6067 Y15.5155 
G01 X22.6318 Y15.6092 
G01 X22.6803 Y15.6931 
G01 X22.7489 Y15.7617 
G00 Z2.5400 
G00 X32.0389 Y15.7617 
G01 Z-0.1778 F254.00 
G01 X32.1228 Y15.8102 F508.00 
G01 X32.2165 Y15.8353 
G01 X33.8335 Y15.8353 
G01 X33.9272 Y15.8102 
G01 X34.0111 Y15.7617 
G01 X34.0797 Y15.6931 
G01 X34.1282 Y15.6092 
G01 X34.1533 Y15.5155 
G01 X34.1533 Y13.6385 
G01 X34.1282 Y13.5448 
G01 X34.0797 Y13.4609 
G01 X34.0111 Y13.3923 
G01 X33.9272 Y13.3438 
G01 X33.8335 Y13.3187 
G01 X33.6981 Y13.3187 
G01 X33.6981 Y4.2668 
G01 X35.0908 Y2.8741 
G01 X35.2181 Y2.8943 
G01 X35.4059 Y2.8943 
G01 X35.5914 Y2.8649 
G01 X35.7701 Y2.8069 
G01 X35.9374 Y2.7216 
G01 X36.0894 Y2.6112 
G01 X36.2222 Y2.4784 
G01 X36.2980 Y2.3741 
G01 X41.2622 Y2.3741 
G01 X42.7358 Y3.8477 
G01 X42.6392 Y3.9219 
G01 X42.4868 Y4.0742 
G01 X42.3557 Y4.2451 
G01 X42.2480 Y4.4316 
G01 X42.1656 Y4.6306 
G01 X42.1098 Y4.8387 
G01 X42.0817 Y5.0523 
G01 X42.0817 Y5.2677 
G01 X42.1098 Y5.4813 
G01 X42.1656 Y5.6894 
G01 X42.2480 Y5.8884 
G01 X42.3557 Y6.0749 
G01 X42.4868 Y6.2458 
G01 X42.6392 Y6.3981 
G01 X42.8101 Y6.5293 
G01 X42.9966 Y6.6370 
G01 X43.1956 Y6.7194 
G01 X43.4037 Y6.7752 
G01 X43.6173 Y6.8033 
G01 X46.3827 Y6.8033 
G01 X46.5963 Y6.7752 
G01 X46.8044 Y6.7194 
G01 X47.0034 Y6.6370 
G01 X47.1899 Y6.5293 
G01 X47.3608 Y6.3981 
G01 X47.5131 Y6.2458 
G01 X47.6443 Y6.0749 
G01 X47.7520 Y5.8884 
G01 X47.8344 Y5.6894 
G01 X47.8902 Y5.4813 
G01 X47.9183 Y5.2677 
G01 X47.9183 Y5.0523 
G01 X47.8902 Y4.8387 
G01 X47.8344 Y4.6306 
G01 X47.7520 Y4.4316 
G01 X47.6443 Y4.2451 
G01 X47.5131 Y4.0742 
G01 X47.3608 Y3.9219 
G01 X47.1899 Y3.7907 
G01 X47.0034 Y3.6830 
G01 X46.8044 Y3.6006 
G01 X46.5963 Y3.5448 
G01 X46.3827 Y3.5167 
G01 X44.3086 Y3.5167 
G01 X41.9701 Y1.1782 
G01 X41.8598 Y1.1045 
G01 X41.7373 Y1.0538 
G01 X41.6073 Y1.0279 
G01 X36.5053 Y1.0279 
G01 X36.5053 Y-0.0429 
G01 X36.4759 Y-0.2284 
G01 X36.4179 Y-0.4071 
G01 X36.3326 Y-0.5744 
G01 X36.2222 Y-0.7264 
G01 X36.0894 Y-0.8592 
G01 X35.9374 Y-0.9696 
G01 X35.7701 Y-1.0549 
G01 X35.5914 Y-1.1129 
G01 X35.4059 Y-1.1423 
G01 X35.2181 Y-1.1423 
G01 X35.0326 Y-1.1129 
G01 X34.8539 Y-1.0549 
G01 X34.6866 Y-0.9696 
G01 X34.5346 Y-0.8592 
G01 X34.4018 Y-0.7264 
G01 X34.2914 Y-0.5744 
G01 X34.2061 Y-0.4071 
G01 X34.1481 Y-0.2284 
G01 X34.1187 Y-0.0429 
G01 X34.1187 Y1.7949 
G01 X34.1389 Y1.9222 
G01 X32.5022 Y3.5589 
G01 X32.4285 Y3.6692 
G01 X32.3778 Y3.7917 
G01 X32.3519 Y3.9217 
G01 X32.3519 Y13.3187 
G01 X32.2165 Y13.3187 
G01 X32.1228 Y13.3438 
G01 X32.0389 Y13.3923 
G01 X31.9703 Y13.4609 
G01 X31.9218 Y13.5448 
G01 X31.8967 Y13.6385 
G01 X31.8967 Y15.5155 
G01 X31.9218 Y15.6092 
G01 X31.9703 Y15.6931 
G01 X32.0389 Y15.7617 
G00 Z2.5400 
G00 X32.0389 Y15.9323 
G01 Z-0.1778 F254.00 
G01 X31.9703 Y16.0009 F508.00 
G01 X31.9218 Y16.0848 
G01 X31.8967 Y16.1785 
G01 X31.8967 Y18.0555 
G01 X31.9218 Y18.1492 
G01 X31.9703 Y18.2331 
G01 X32.0389 Y18.3017 
G01 X32.1228 Y18.3502 
G01 X32.2165 Y18.3753 
G01 X33.8335 Y18.3753 
G01 X33.9272 Y18.3502 
G01 X34.0111 Y18.3017 
G01 X34.0797 Y18.2331 
G01 X34.1282 Y18.1492 
G01 X34.1533 Y18.0555 
G01 X34.1533 Y17.7901 
G01 X34.9321 Y17.7901 
G01 X34.9568 Y17.8822 
G01 X35.0053 Y17.9661 
G01 X35.0739 Y18.0347 
G01 X35.1578 Y18.0832 
G01 X35.2515 Y18.1083 
G01 X36.1485 Y18.1083 
G01 X36.2422 Y18.0832 
G01 X36.3261 Y18.0347 
G01 X36.3947 Y17.9661 
G01 X36.4432 Y17.8822 
G01 X36.4683 Y17.7885 
G01 X36.4683 Y16.4915 
G01 X36.4432 Y16.3978 
G01 X36.3947 Y16.3139 
G01 X36.3731 Y16.2922 
G01 X36.3731 Y15.5788 
G01 X38.1788 Y13.7731 
G01 X42.2334 Y13.7731 
G01 X42.2480 Y13.8084 
G01 X42.3557 Y13.9949 
G01 X42.4868 Y14.1658 
G01 X42.6392 Y14.3181 
G01 X42.8101 Y14.4493 
G01 X42.9966 Y14.5570 
G01 X43.1956 Y14.6394 
G01 X43.4037 Y14.6952 
G01 X43.6173 Y14.7233 
G01 X46.3827 Y14.7233 
G01 X46.5963 Y14.6952 
G01 X46.8044 Y14.6394 
G01 X47.0034 Y14.5570 
G01 X47.1899 Y14.4493 
G01 X47.3608 Y14.3181 
G01 X47.5131 Y14.1658 
G01 X47.6443 Y13.9949 
G01 X47.7520 Y13.8084 
G01 X47.8344 Y13.6094 
G01 X47.8902 Y13.4013 
G01 X47.9183 Y13.1877 
G01 X47.9183 Y12.9723 
G01 X47.8902 Y12.7587 
G01 X47.8344 Y12.5506 
G01 X47.7520 Y12.3516 
G01 X47.6443 Y12.1651 
G01 X47.5131 Y11.9942 
G01 X47.3608 Y11.8419 
G01 X47.1899 Y11.7107 
G01 X47.0034 Y11.6030 
G01 X46.8044 Y11.5206 
G01 X46.5963 Y11.4648 
G01 X46.3827 Y11.4367 
G01 X43.6173 Y11.4367 
G01 X43.4037 Y11.4648 
G01 X43.1956 Y11.5206 
G01 X42.9966 Y11.6030 
G01 X42.8101 Y11.7107 
G01 X42.6392 Y11.8419 
G01 X42.4868 Y11.9942 
G01 X42.3557 Y12.1651 
G01 X42.2480 Y12.3516 
G01 X42.2168 Y12.4269 
G01 X37.8337 Y12.4269 
G01 X37.7037 Y12.4528 
G01 X37.5812 Y12.5035 
G01 X37.4709 Y12.5772 
G01 X37.3772 Y12.6709 
G01 X35.1772 Y14.8709 
G01 X35.1035 Y14.9812 
G01 X35.0528 Y15.1037 
G01 X35.0269 Y15.2337 
G01 X35.0269 Y16.2922 
G01 X35.0053 Y16.3139 
G01 X34.9568 Y16.3978 
G01 X34.9445 Y16.4439 
G01 X34.1533 Y16.4439 
G01 X34.1533 Y16.1785 
G01 X34.1282 Y16.0848 
G01 X34.0797 Y16.0009 
G01 X34.0111 Y15.9323 
G01 X33.9272 Y15.8838 
G01 X33.8335 Y15.8587 
G01 X32.2165 Y15.8587 
G01 X32.1228 Y15.8838 
G01 X32.0389 Y15.9323 
G00 Z2.5400 
G00 X32.0389 Y18.4723 
G01 Z-0.1778 F254.00 
G01 X31.9703 Y18.5409 F508.00 
G01 X31.9218 Y18.6248 
G01 X31.8967 Y18.7185 
G01 X31.8967 Y20.5955 
G01 X31.9218 Y20.6892 
G01 X31.9703 Y20.7731 
G01 X32.0389 Y20.8417 
G01 X32.1228 Y20.8902 
G01 X32.2165 Y20.9153 
G01 X33.8335 Y20.9153 
G01 X33.9272 Y20.8902 
G01 X34.0111 Y20.8417 
G01 X34.0797 Y20.7731 
G01 X34.1282 Y20.6892 
G01 X34.1533 Y20.5955 
G01 X34.1533 Y18.7185 
G01 X34.1282 Y18.6248 
G01 X34.0797 Y18.5409 
G01 X34.0111 Y18.4723 
G01 X33.9272 Y18.4238 
G01 X33.8335 Y18.3987 
G01 X32.2165 Y18.3987 
G01 X32.1228 Y18.4238 
G01 X32.0389 Y18.4723 
G00 Z2.5400 
G00 X36.8739 Y18.0347 
G01 Z-0.1778 F254.00 
G01 X36.9578 Y18.0832 F508.00 
G01 X37.0515 Y18.1083 
G01 X37.9485 Y18.1083 
G01 X38.0422 Y18.0832 
G01 X38.1261 Y18.0347 
G01 X38.1947 Y17.9661 
G01 X38.2432 Y17.8822 
G01 X38.2644 Y17.8030 
G01 X42.2404 Y17.7500 
G01 X42.2480 Y17.7684 
G01 X42.3557 Y17.9549 
G01 X42.4868 Y18.1258 
G01 X42.6392 Y18.2781 
G01 X42.8101 Y18.4093 
G01 X42.9966 Y18.5170 
G01 X43.1956 Y18.5994 
G01 X43.4037 Y18.6552 
G01 X43.6173 Y18.6833 
G01 X46.3827 Y18.6833 
G01 X46.5963 Y18.6552 
G01 X46.8044 Y18.5994 
G01 X47.0034 Y18.5170 
G01 X47.1899 Y18.4093 
G01 X47.3608 Y18.2781 
G01 X47.5131 Y18.1258 
G01 X47.6443 Y17.9549 
G01 X47.7520 Y17.7684 
G01 X47.8344 Y17.5694 
G01 X47.8902 Y17.3613 
G01 X47.9183 Y17.1477 
G01 X47.9183 Y16.9323 
G01 X47.8902 Y16.7187 
G01 X47.8344 Y16.5106 
G01 X47.7520 Y16.3116 
G01 X47.6443 Y16.1251 
G01 X47.5131 Y15.9542 
G01 X47.3608 Y15.8018 
G01 X47.1899 Y15.6707 
G01 X47.0034 Y15.5630 
G01 X46.8044 Y15.4806 
G01 X46.5963 Y15.4248 
G01 X46.3827 Y15.3967 
G01 X43.6173 Y15.3967 
G01 X43.4037 Y15.4248 
G01 X43.1956 Y15.4806 
G01 X42.9966 Y15.5630 
G01 X42.8101 Y15.6707 
G01 X42.6392 Y15.8018 
G01 X42.4868 Y15.9542 
G01 X42.3557 Y16.1251 
G01 X42.2480 Y16.3116 
G01 X42.2097 Y16.4040 
G01 X38.2590 Y16.4567 
G01 X38.2432 Y16.3978 
G01 X38.1947 Y16.3139 
G01 X38.1261 Y16.2453 
G01 X38.0422 Y16.1968 
G01 X37.9485 Y16.1717 
G01 X37.0515 Y16.1717 
G01 X36.9578 Y16.1968 
G01 X36.8739 Y16.2453 
G01 X36.8053 Y16.3139 
G01 X36.7568 Y16.3978 
G01 X36.7317 Y16.4915 
G01 X36.7317 Y17.7885 
G01 X36.7568 Y17.8822 
G01 X36.8053 Y17.9661 
G01 X36.8739 Y18.0347 
G00 Z2.5400 
G00 X36.2222 Y11.7484 
G01 Z-0.1778 F254.00 
G01 X36.3326 Y11.5964 F508.00 
G01 X36.3419 Y11.5781 
G01 X37.7213 Y11.5781 
G01 X37.7398 Y11.6472 
G01 X37.7883 Y11.7311 
G01 X37.8569 Y11.7997 
G01 X37.9408 Y11.8482 
G01 X38.0345 Y11.8733 
G01 X38.9315 Y11.8733 
G01 X39.0252 Y11.8482 
G01 X39.1091 Y11.7997 
G01 X39.1777 Y11.7311 
G01 X39.2262 Y11.6472 
G01 X39.2513 Y11.5535 
G01 X39.2513 Y10.2565 
G01 X39.2262 Y10.1628 
G01 X39.1777 Y10.0789 
G01 X39.1091 Y10.0103 
G01 X39.0252 Y9.9618 
G01 X38.9315 Y9.9367 
G01 X38.0345 Y9.9367 
G01 X37.9408 Y9.9618 
G01 X37.8569 Y10.0103 
G01 X37.7883 Y10.0789 
G01 X37.7398 Y10.1628 
G01 X37.7213 Y10.2319 
G01 X36.5053 Y10.2319 
G01 X36.5053 Y9.2271 
G01 X36.4759 Y9.0416 
G01 X36.4179 Y8.8629 
G01 X36.3326 Y8.6956 
G01 X36.2222 Y8.5436 
G01 X36.0894 Y8.4108 
G01 X35.9374 Y8.3004 
G01 X35.7701 Y8.2151 
G01 X35.5914 Y8.1571 
G01 X35.4059 Y8.1277 
G01 X35.2181 Y8.1277 
G01 X35.0326 Y8.1571 
G01 X34.8539 Y8.2151 
G01 X34.6866 Y8.3004 
G01 X34.5346 Y8.4108 
G01 X34.4018 Y8.5436 
G01 X34.2914 Y8.6956 
G01 X34.2061 Y8.8629 
G01 X34.1481 Y9.0416 
G01 X34.1187 Y9.2271 
G01 X34.1187 Y11.0649 
G01 X34.1481 Y11.2504 
G01 X34.2061 Y11.4291 
G01 X34.2914 Y11.5964 
G01 X34.4018 Y11.7484 
G01 X34.5346 Y11.8812 
G01 X34.6866 Y11.9916 
G01 X34.8539 Y12.0769 
G01 X35.0326 Y12.1349 
G01 X35.2181 Y12.1643 
G01 X35.4059 Y12.1643 
G01 X35.5914 Y12.1349 
G01 X35.7701 Y12.0769 
G01 X35.9374 Y11.9916 
G01 X36.0894 Y11.8812 
G01 X36.2222 Y11.7484 
G00 Z2.5400 
G00 X39.5883 Y11.7311 
G01 Z-0.1778 F254.00 
G01 X39.6569 Y11.7997 F508.00 
G01 X39.7408 Y11.8482 
G01 X39.8345 Y11.8733 
G01 X40.7315 Y11.8733 
G01 X40.8252 Y11.8482 
G01 X40.9091 Y11.7997 
G01 X40.9777 Y11.7311 
G01 X41.0262 Y11.6472 
G01 X41.0460 Y11.5731 
G01 X41.4663 Y11.5731 
G01 X41.5963 Y11.5472 
G01 X41.7188 Y11.4965 
G01 X41.8291 Y11.4228 
G01 X41.9228 Y11.3291 
G01 X42.7832 Y10.4687 
G01 X42.8101 Y10.4893 
G01 X42.9966 Y10.5970 
G01 X43.1956 Y10.6794 
G01 X43.4037 Y10.7352 
G01 X43.6173 Y10.7633 
G01 X46.3827 Y10.7633 
G01 X46.5963 Y10.7352 
G01 X46.8044 Y10.6794 
G01 X47.0034 Y10.5970 
G01 X47.1899 Y10.4893 
G01 X47.3608 Y10.3581 
G01 X47.5131 Y10.2058 
G01 X47.6443 Y10.0349 
G01 X47.7520 Y9.8484 
G01 X47.8344 Y9.6494 
G01 X47.8902 Y9.4413 
G01 X47.9183 Y9.2277 
G01 X47.9183 Y9.0123 
G01 X47.8902 Y8.7987 
G01 X47.8344 Y8.5906 
G01 X47.7520 Y8.3916 
G01 X47.6443 Y8.2051 
G01 X47.5131 Y8.0342 
G01 X47.3608 Y7.8819 
G01 X47.1899 Y7.7507 
G01 X47.0034 Y7.6430 
G01 X46.8044 Y7.5606 
G01 X46.5963 Y7.5048 
G01 X46.3827 Y7.4767 
G01 X43.6173 Y7.4767 
G01 X43.4037 Y7.5048 
G01 X43.1956 Y7.5606 
G01 X42.9966 Y7.6430 
G01 X42.8101 Y7.7507 
G01 X42.6392 Y7.8819 
G01 X42.4868 Y8.0342 
G01 X42.3557 Y8.2051 
G01 X42.2480 Y8.3916 
G01 X42.1656 Y8.5906 
G01 X42.1098 Y8.7987 
G01 X42.0817 Y9.0123 
G01 X42.0817 Y9.2277 
G01 X42.0862 Y9.2619 
G01 X41.1212 Y10.2269 
G01 X41.0434 Y10.2269 
G01 X41.0262 Y10.1628 
G01 X40.9777 Y10.0789 
G01 X40.9091 Y10.0103 
G01 X40.8252 Y9.9618 
G01 X40.7315 Y9.9367 
G01 X39.8345 Y9.9367 
G01 X39.7408 Y9.9618 
G01 X39.6569 Y10.0103 
G01 X39.5883 Y10.0789 
G01 X39.5398 Y10.1628 
G01 X39.5147 Y10.2565 
G01 X39.5147 Y11.5535 
G01 X39.5398 Y11.6472 
G01 X39.5883 Y11.7311 
G00 Z2.5400 
G00 X3.1739 Y2.9941 
G01 Z-0.1778 F254.00 
G01 X3.0453 Y3.1711 F508.00 
G01 X2.9459 Y3.3662 
G01 X2.8782 Y3.5744 
G01 X2.8440 Y3.7906 
G01 X2.8440 Y4.0094 
G01 X2.8782 Y4.2256 
G01 X2.9459 Y4.4338 
G01 X3.0453 Y4.6289 
G01 X3.1739 Y4.8059 
G01 X3.3287 Y4.9607 
G01 X3.5058 Y5.0894 
G01 X3.7008 Y5.1888 
G01 X3.9090 Y5.2564 
G01 X4.1252 Y5.2906 
G01 X6.1348 Y5.2906 
G01 X6.3510 Y5.2564 
G01 X6.4215 Y5.2335 
G01 X15.4380 Y5.2335 
G01 X15.6453 Y5.2007 
G01 X15.8449 Y5.1358 
G01 X16.0319 Y5.0405 
G01 X16.2017 Y4.9171 
G01 X18.5491 Y2.5697 
G01 X18.6725 Y2.3999 
G01 X18.7678 Y2.2129 
G01 X18.8327 Y2.0133 
G01 X18.8655 Y1.8059 
G01 X18.8655 Y1.5960 
G01 X18.8523 Y1.5127 
G01 X18.8523 Y-0.0529 
G01 X18.8198 Y-0.2582 
G01 X18.7556 Y-0.4558 
G01 X18.6612 Y-0.6410 
G01 X18.5391 Y-0.8091 
G01 X18.3921 Y-0.9561 
G01 X18.2240 Y-1.0782 
G01 X18.0388 Y-1.1726 
G01 X17.8412 Y-1.2368 
G01 X17.6359 Y-1.2693 
G01 X17.4281 Y-1.2693 
G01 X17.2228 Y-1.2368 
G01 X17.0252 Y-1.1726 
G01 X16.8400 Y-1.0782 
G01 X16.6719 Y-0.9561 
G01 X16.5249 Y-0.8091 
G01 X16.4028 Y-0.6410 
G01 X16.3084 Y-0.4558 
G01 X16.2442 Y-0.2582 
G01 X16.2117 Y-0.0529 
G01 X16.2117 Y1.1354 
G01 X14.7806 Y2.5665 
G01 X6.4215 Y2.5665 
G01 X6.3510 Y2.5436 
G01 X6.1348 Y2.5093 
G01 X4.1252 Y2.5093 
G01 X3.9090 Y2.5436 
G01 X3.7008 Y2.6112 
G01 X3.5058 Y2.7106 
G01 X3.3287 Y2.8393 
G01 X3.1739 Y2.9941 
G00 Z2.5400 
G00 X3.1906 Y7.4288 
G01 Z-0.1778 F254.00 
G01 X2.9680 Y7.5422 F508.00 
G01 X2.7658 Y7.6891 
G01 X0.3658 Y10.0891 
G01 X0.1891 Y10.2658 
G01 X0.0422 Y10.4680 
G01 X-0.0712 Y10.6906 
G01 X-0.1484 Y10.9283 
G01 X-0.1875 Y11.1751 
G01 X-0.1875 Y17.0249 
G01 X-0.1484 Y17.2717 
G01 X-0.0712 Y17.5094 
G01 X0.0422 Y17.7320 
G01 X0.1891 Y17.9342 
G01 X2.1891 Y19.9342 
G01 X2.3658 Y20.1109 
G01 X2.5680 Y20.2578 
G01 X2.7906 Y20.3712 
G01 X3.0283 Y20.4484 
G01 X3.2751 Y20.4875 
G01 X7.2424 Y20.4875 
G01 X7.6891 Y20.9342 
G01 X7.8658 Y21.1109 
G01 X8.0680 Y21.2578 
G01 X8.2906 Y21.3712 
G01 X8.5283 Y21.4484 
G01 X8.7751 Y21.4875 
G01 X10.8947 Y21.4875 
G01 X10.8947 Y21.6082 
G01 X10.9285 Y21.7342 
G01 X10.9937 Y21.8471 
G01 X11.0859 Y21.9393 
G01 X11.1988 Y22.0045 
G01 X11.3248 Y22.0383 
G01 X13.2552 Y22.0383 
G01 X13.3812 Y22.0045 
G01 X13.4941 Y21.9393 
G01 X13.5863 Y21.8471 
G01 X13.6515 Y21.7342 
G01 X13.6853 Y21.6082 
G01 X13.6853 Y20.7013 
G01 X13.7612 Y20.5524 
G01 X13.8384 Y20.3147 
G01 X13.8775 Y20.0679 
G01 X13.8775 Y19.8181 
G01 X13.8384 Y19.5713 
G01 X13.7612 Y19.3336 
G01 X13.6853 Y19.1847 
G01 X13.6853 Y18.2778 
G01 X13.6515 Y18.1518 
G01 X13.5863 Y18.0389 
G01 X13.4941 Y17.9467 
G01 X13.3812 Y17.8815 
G01 X13.2552 Y17.8477 
G01 X11.3248 Y17.8477 
G01 X11.1988 Y17.8815 
G01 X11.0859 Y17.9467 
G01 X10.9937 Y18.0389 
G01 X10.9285 Y18.1518 
G01 X10.8947 Y18.2778 
G01 X10.8947 Y18.3125 
G01 X9.5576 Y18.3125 
G01 X8.9342 Y17.6891 
G01 X8.7320 Y17.5422 
G01 X8.5094 Y17.4288 
G01 X8.2717 Y17.3516 
G01 X8.0249 Y17.3125 
G01 X4.0576 Y17.3125 
G01 X2.9875 Y16.2424 
G01 X2.9875 Y14.5155 
G01 X3.0453 Y14.6289 
G01 X3.1739 Y14.8059 
G01 X3.3287 Y14.9607 
G01 X3.5058 Y15.0894 
G01 X3.7008 Y15.1888 
G01 X3.9090 Y15.2564 
G01 X4.1252 Y15.2906 
G01 X4.3625 Y15.2906 
G01 X4.5206 Y15.3712 
G01 X4.7583 Y15.4484 
G01 X5.0051 Y15.4875 
G01 X9.9884 Y15.4875 
G01 X10.9137 Y16.4128 
G01 X10.9137 Y17.2282 
G01 X10.9475 Y17.3542 
G01 X11.0127 Y17.4671 
G01 X11.1049 Y17.5593 
G01 X11.2178 Y17.6245 
G01 X11.3438 Y17.6583 
G01 X13.2742 Y17.6583 
G01 X13.4002 Y17.6245 
G01 X13.5131 Y17.5593 
G01 X13.6053 Y17.4671 
G01 X13.6705 Y17.3542 
G01 X13.7043 Y17.2282 
G01 X13.7043 Y16.3213 
G01 X13.7802 Y16.1724 
G01 X13.8574 Y15.9347 
G01 X13.8965 Y15.6879 
G01 X13.8965 Y15.4381 
G01 X13.8574 Y15.1913 
G01 X13.7802 Y14.9536 
G01 X13.7043 Y14.8047 
G01 X13.7043 Y13.8978 
G01 X13.6705 Y13.7718 
G01 X13.6053 Y13.6589 
G01 X13.5131 Y13.5667 
G01 X13.4002 Y13.5015 
G01 X13.2742 Y13.4677 
G01 X13.0774 Y13.4677 
G01 X14.2576 Y12.2875 
G01 X19.1249 Y12.2875 
G01 X19.3717 Y12.2484 
G01 X19.5544 Y12.1891 
G01 X19.5652 Y12.1946 
G01 X19.7628 Y12.2588 
G01 X19.9681 Y12.2913 
G01 X20.1759 Y12.2913 
G01 X20.3812 Y12.2588 
G01 X20.5788 Y12.1946 
G01 X20.7640 Y12.1002 
G01 X20.9321 Y11.9781 
G01 X21.0791 Y11.8311 
G01 X21.2012 Y11.6630 
G01 X21.2956 Y11.4778 
G01 X21.3598 Y11.2802 
G01 X21.3923 Y11.0749 
G01 X21.3923 Y10.5116 
G01 X21.4297 Y10.4600 
G01 X21.5432 Y10.2374 
G01 X21.6204 Y9.9997 
G01 X21.6595 Y9.7529 
G01 X21.6595 Y9.1961 
G01 X21.6204 Y8.9493 
G01 X21.5432 Y8.7116 
G01 X21.4297 Y8.4890 
G01 X21.2829 Y8.2868 
G01 X21.1062 Y8.1101 
G01 X20.9040 Y7.9632 
G01 X20.6814 Y7.8498 
G01 X20.4437 Y7.7726 
G01 X20.1969 Y7.7335 
G01 X19.9471 Y7.7335 
G01 X19.7003 Y7.7726 
G01 X19.4626 Y7.8498 
G01 X19.2400 Y7.9632 
G01 X19.0378 Y8.1101 
G01 X18.8611 Y8.2868 
G01 X18.7142 Y8.4890 
G01 X18.6008 Y8.7116 
G01 X18.5322 Y8.9227 
G01 X18.3424 Y9.1125 
G01 X13.4751 Y9.1125 
G01 X13.2283 Y9.1516 
G01 X12.9906 Y9.2288 
G01 X12.7680 Y9.3422 
G01 X12.5658 Y9.4891 
G01 X9.7424 Y12.3125 
G01 X5.0051 Y12.3125 
G01 X4.7583 Y12.3516 
G01 X4.5206 Y12.4288 
G01 X4.3625 Y12.5093 
G01 X4.1252 Y12.5093 
G01 X3.9090 Y12.5436 
G01 X3.7008 Y12.6112 
G01 X3.5058 Y12.7106 
G01 X3.3287 Y12.8393 
G01 X3.1739 Y12.9940 
G01 X3.0453 Y13.1711 
G01 X2.9875 Y13.2845 
G01 X2.9875 Y11.9576 
G01 X4.4576 Y10.4875 
G01 X5.2549 Y10.4875 
G01 X5.5017 Y10.4484 
G01 X5.7394 Y10.3712 
G01 X5.8975 Y10.2906 
G01 X6.1348 Y10.2906 
G01 X6.3510 Y10.2564 
G01 X6.5592 Y10.1888 
G01 X6.7542 Y10.0894 
G01 X6.9313 Y9.9607 
G01 X7.0861 Y9.8059 
G01 X7.2147 Y9.6289 
G01 X7.3141 Y9.4338 
G01 X7.3818 Y9.2256 
G01 X7.4160 Y9.0094 
G01 X7.4160 Y8.7905 
G01 X7.3818 Y8.5744 
G01 X7.3141 Y8.3662 
G01 X7.2147 Y8.1711 
G01 X7.0861 Y7.9940 
G01 X6.9313 Y7.8393 
G01 X6.7542 Y7.7106 
G01 X6.5592 Y7.6112 
G01 X6.3510 Y7.5436 
G01 X6.1348 Y7.5094 
G01 X5.8975 Y7.5094 
G01 X5.7394 Y7.4288 
G01 X5.5017 Y7.3516 
G01 X5.2549 Y7.3125 
G01 X3.6751 Y7.3125 
G01 X3.4283 Y7.3516 
G01 X3.1906 Y7.4288 
G00 Z2.5400 
G00 X16.6127 Y13.6589 
G01 Z-0.1778 F254.00 
G01 X16.5475 Y13.7718 F508.00 
G01 X16.5137 Y13.8978 
G01 X16.5137 Y17.2282 
G01 X16.5475 Y17.3542 
G01 X16.6127 Y17.4671 
G01 X16.7049 Y17.5593 
G01 X16.8178 Y17.6245 
G01 X16.9438 Y17.6583 
G01 X18.8742 Y17.6583 
G01 X19.0002 Y17.6245 
G01 X19.1131 Y17.5593 
G01 X19.2053 Y17.4671 
G01 X19.2705 Y17.3542 
G01 X19.3043 Y17.2282 
G01 X19.3043 Y16.7232 
G01 X20.4774 Y17.8963 
G01 X20.6418 Y18.0061 
G01 X20.8243 Y18.0817 
G01 X21.0182 Y18.1203 
G01 X22.4926 Y18.1203 
G01 X22.5135 Y18.1982 
G01 X22.5787 Y18.3111 
G01 X22.6545 Y18.3870 
G01 X22.5787 Y18.4629 
G01 X22.5135 Y18.5758 
G01 X22.4926 Y18.6537 
G01 X19.2853 Y18.6537 
G01 X19.2853 Y18.2778 
G01 X19.2515 Y18.1518 
G01 X19.1863 Y18.0389 
G01 X19.0941 Y17.9467 
G01 X18.9812 Y17.8815 
G01 X18.8552 Y17.8477 
G01 X16.9248 Y17.8477 
G01 X16.7988 Y17.8815 
G01 X16.6859 Y17.9467 
G01 X16.5937 Y18.0389 
G01 X16.5285 Y18.1518 
G01 X16.4947 Y18.2778 
G01 X16.4947 Y21.6082 
G01 X16.5285 Y21.7342 
G01 X16.5937 Y21.8471 
G01 X16.6859 Y21.9393 
G01 X16.7988 Y22.0045 
G01 X16.9248 Y22.0383 
G01 X18.8552 Y22.0383 
G01 X18.9812 Y22.0045 
G01 X19.0941 Y21.9393 
G01 X19.1863 Y21.8471 
G01 X19.2515 Y21.7342 
G01 X19.2853 Y21.6082 
G01 X19.2853 Y20.6603 
G01 X22.4926 Y20.6603 
G01 X22.5135 Y20.7382 
G01 X22.5787 Y20.8511 
G01 X22.6709 Y20.9433 
G01 X22.7838 Y21.0085 
G01 X22.9098 Y21.0423 
G01 X24.5602 Y21.0423 
G01 X24.6862 Y21.0085 
G01 X24.7991 Y20.9433 
G01 X24.8913 Y20.8511 
G01 X24.9565 Y20.7382 
G01 X24.9903 Y20.6122 
G01 X24.9903 Y18.7018 
G01 X24.9565 Y18.5758 
G01 X24.8913 Y18.4629 
G01 X24.8155 Y18.3870 
G01 X24.8913 Y18.3111 
G01 X24.9565 Y18.1982 
G01 X24.9903 Y18.0722 
G01 X24.9903 Y16.1618 
G01 X24.9565 Y16.0358 
G01 X24.8913 Y15.9229 
G01 X24.8155 Y15.8470 
G01 X24.8913 Y15.7711 
G01 X24.9565 Y15.6582 
G01 X24.9903 Y15.5322 
G01 X24.9903 Y13.6218 
G01 X24.9565 Y13.4958 
G01 X24.8913 Y13.3829 
G01 X24.7991 Y13.2907 
G01 X24.6862 Y13.2255 
G01 X24.5602 Y13.1917 
G01 X22.9098 Y13.1917 
G01 X22.7838 Y13.2255 
G01 X22.6709 Y13.2907 
G01 X22.5787 Y13.3829 
G01 X22.5135 Y13.4958 
G01 X22.4797 Y13.6218 
G01 X22.4797 Y15.5322 
G01 X22.5135 Y15.6582 
G01 X22.5787 Y15.7711 
G01 X22.6545 Y15.8470 
G01 X22.5787 Y15.9229 
G01 X22.5135 Y16.0358 
G01 X22.4926 Y16.1137 
G01 X21.5326 Y16.1137 
G01 X20.2793 Y14.8604 
G01 X20.1396 Y14.7207 
G01 X19.9752 Y14.6109 
G01 X19.7926 Y14.5353 
G01 X19.5988 Y14.4967 
G01 X19.3043 Y14.4967 
G01 X19.3043 Y13.8978 
G01 X19.2705 Y13.7718 
G01 X19.2053 Y13.6589 
G01 X19.1131 Y13.5667 
G01 X19.0002 Y13.5015 
G01 X18.8742 Y13.4677 
G01 X16.9438 Y13.4677 
G01 X16.8178 Y13.5015 
G01 X16.7049 Y13.5667 
G01 X16.6127 Y13.6589 
G00 Z2.5400 
G00 X31.7697 Y13.6218 
G01 Z-0.1778 F254.00 
G01 X31.7697 Y15.5322 F508.00 
G01 X31.8035 Y15.6582 
G01 X31.8687 Y15.7711 
G01 X31.9445 Y15.8470 
G01 X31.8687 Y15.9229 
G01 X31.8035 Y16.0358 
G01 X31.7697 Y16.1618 
G01 X31.7697 Y18.0722 
G01 X31.8035 Y18.1982 
G01 X31.8687 Y18.3111 
G01 X31.9445 Y18.3870 
G01 X31.8687 Y18.4629 
G01 X31.8035 Y18.5758 
G01 X31.7697 Y18.7018 
G01 X31.7697 Y20.6122 
G01 X31.8035 Y20.7382 
G01 X31.8687 Y20.8511 
G01 X31.9609 Y20.9433 
G01 X32.0738 Y21.0085 
G01 X32.1998 Y21.0423 
G01 X33.8502 Y21.0423 
G01 X33.9762 Y21.0085 
G01 X34.0891 Y20.9433 
G01 X34.1813 Y20.8511 
G01 X34.2465 Y20.7382 
G01 X34.2803 Y20.6122 
G01 X34.2803 Y18.7018 
G01 X34.2465 Y18.5758 
G01 X34.1813 Y18.4629 
G01 X34.1055 Y18.3870 
G01 X34.1813 Y18.3111 
G01 X34.2465 Y18.1982 
G01 X34.2803 Y18.0722 
G01 X34.2803 Y17.9171 
G01 X34.8347 Y17.9171 
G01 X34.8385 Y17.9312 
G01 X34.9037 Y18.0441 
G01 X34.9959 Y18.1363 
G01 X35.1088 Y18.2015 
G01 X35.2348 Y18.2353 
G01 X36.1652 Y18.2353 
G01 X36.2912 Y18.2015 
G01 X36.4041 Y18.1363 
G01 X36.4963 Y18.0441 
G01 X36.5615 Y17.9312 
G01 X36.5953 Y17.8052 
G01 X36.5953 Y16.4748 
G01 X36.5615 Y16.3488 
G01 X36.5001 Y16.2424 
G01 X36.5001 Y15.6314 
G01 X38.2314 Y13.9001 
G01 X42.1543 Y13.9001 
G01 X42.2499 Y14.0656 
G01 X42.3912 Y14.2497 
G01 X42.5553 Y14.4138 
G01 X42.7394 Y14.5551 
G01 X42.9403 Y14.6711 
G01 X43.1547 Y14.7599 
G01 X43.3789 Y14.8200 
G01 X43.6090 Y14.8503 
G01 X46.3910 Y14.8503 
G01 X46.6211 Y14.8200 
G01 X46.8453 Y14.7599 
G01 X47.0597 Y14.6711 
G01 X47.2606 Y14.5551 
G01 X47.4447 Y14.4138 
G01 X47.6088 Y14.2497 
G01 X47.7501 Y14.0656 
G01 X47.8661 Y13.8647 
G01 X47.9549 Y13.6503 
G01 X48.0150 Y13.4261 
G01 X48.0453 Y13.1960 
G01 X48.0453 Y12.9640 
G01 X48.0150 Y12.7339 
G01 X47.9549 Y12.5097 
G01 X47.8661 Y12.2953 
G01 X47.7501 Y12.0944 
G01 X47.6088 Y11.9103 
G01 X47.4447 Y11.7462 
G01 X47.2606 Y11.6049 
G01 X47.0597 Y11.4889 
G01 X46.8453 Y11.4001 
G01 X46.6211 Y11.3400 
G01 X46.3910 Y11.3097 
G01 X43.6090 Y11.3097 
G01 X43.3789 Y11.3400 
G01 X43.1547 Y11.4001 
G01 X42.9403 Y11.4889 
G01 X42.7394 Y11.6049 
G01 X42.5553 Y11.7462 
G01 X42.3912 Y11.9103 
G01 X42.2499 Y12.0944 
G01 X42.1339 Y12.2953 
G01 X42.1320 Y12.2999 
G01 X37.8212 Y12.2999 
G01 X37.6666 Y12.3306 
G01 X37.5210 Y12.3910 
G01 X37.3900 Y12.4785 
G01 X37.2785 Y12.5900 
G01 X35.0785 Y14.7900 
G01 X34.9910 Y14.9210 
G01 X34.9306 Y15.0666 
G01 X34.8999 Y15.2212 
G01 X34.8999 Y16.2424 
G01 X34.8569 Y16.3169 
G01 X34.2803 Y16.3169 
G01 X34.2803 Y16.1618 
G01 X34.2465 Y16.0358 
G01 X34.1813 Y15.9229 
G01 X34.1055 Y15.8470 
G01 X34.1813 Y15.7711 
G01 X34.2465 Y15.6582 
G01 X34.2803 Y15.5322 
G01 X34.2803 Y13.6218 
G01 X34.2465 Y13.4958 
G01 X34.1813 Y13.3829 
G01 X34.0891 Y13.2907 
G01 X33.9762 Y13.2255 
G01 X33.8502 Y13.1917 
G01 X33.8251 Y13.1917 
G01 X33.8251 Y4.3194 
G01 X35.1348 Y3.0097 
G01 X35.2081 Y3.0213 
G01 X35.4159 Y3.0213 
G01 X35.6212 Y2.9888 
G01 X35.8188 Y2.9246 
G01 X36.0040 Y2.8302 
G01 X36.1721 Y2.7081 
G01 X36.3191 Y2.5611 
G01 X36.3627 Y2.5011 
G01 X41.2096 Y2.5011 
G01 X42.5450 Y3.8365 
G01 X42.3912 Y3.9903 
G01 X42.2499 Y4.1744 
G01 X42.1339 Y4.3753 
G01 X42.0451 Y4.5897 
G01 X41.9850 Y4.8139 
G01 X41.9547 Y5.0440 
G01 X41.9547 Y5.2760 
G01 X41.9850 Y5.5061 
G01 X42.0451 Y5.7303 
G01 X42.1339 Y5.9447 
G01 X42.2499 Y6.1456 
G01 X42.3912 Y6.3297 
G01 X42.5553 Y6.4938 
G01 X42.7394 Y6.6351 
G01 X42.9403 Y6.7511 
G01 X43.1547 Y6.8399 
G01 X43.3789 Y6.9000 
G01 X43.6090 Y6.9303 
G01 X46.3910 Y6.9303 
G01 X46.6211 Y6.9000 
G01 X46.8453 Y6.8399 
G01 X47.0597 Y6.7511 
G01 X47.2606 Y6.6351 
G01 X47.4447 Y6.4938 
G01 X47.6088 Y6.3297 
G01 X47.7501 Y6.1456 
G01 X47.8661 Y5.9447 
G01 X47.9549 Y5.7303 
G01 X48.0150 Y5.5061 
G01 X48.0453 Y5.2760 
G01 X48.0453 Y5.0440 
G01 X48.0150 Y4.8139 
G01 X47.9549 Y4.5897 
G01 X47.8661 Y4.3753 
G01 X47.7501 Y4.1744 
G01 X47.6088 Y3.9903 
G01 X47.4447 Y3.8262 
G01 X47.2606 Y3.6849 
G01 X47.0597 Y3.5689 
G01 X46.8453 Y3.4801 
G01 X46.6211 Y3.4200 
G01 X46.3910 Y3.3897 
G01 X44.3612 Y3.3897 
G01 X42.0510 Y1.0795 
G01 X41.9200 Y0.9920 
G01 X41.7744 Y0.9316 
G01 X41.6198 Y0.9009 
G01 X36.6323 Y0.9009 
G01 X36.6323 Y-0.0529 
G01 X36.5998 Y-0.2582 
G01 X36.5356 Y-0.4558 
G01 X36.4412 Y-0.6410 
G01 X36.3191 Y-0.8091 
G01 X36.1721 Y-0.9561 
G01 X36.0040 Y-1.0782 
G01 X35.8188 Y-1.1726 
G01 X35.6212 Y-1.2368 
G01 X35.4159 Y-1.2693 
G01 X35.2081 Y-1.2693 
G01 X35.0028 Y-1.2368 
G01 X34.8052 Y-1.1726 
G01 X34.6200 Y-1.0782 
G01 X34.4519 Y-0.9561 
G01 X34.3049 Y-0.8091 
G01 X34.1828 Y-0.6410 
G01 X34.0884 Y-0.4558 
G01 X34.0242 Y-0.2582 
G01 X33.9917 Y-0.0529 
G01 X33.9917 Y1.8049 
G01 X34.0033 Y1.8782 
G01 X32.4035 Y3.4780 
G01 X32.3160 Y3.6090 
G01 X32.2556 Y3.7546 
G01 X32.2249 Y3.9092 
G01 X32.2249 Y13.1917 
G01 X32.1998 Y13.1917 
G01 X32.0738 Y13.2255 
G01 X31.9609 Y13.2907 
G01 X31.8687 Y13.3829 
G01 X31.8035 Y13.4958 
G01 X31.7697 Y13.6218 
G00 Z2.5400 
G00 X34.4519 Y11.9781 
G01 Z-0.1778 F254.00 
G01 X34.6200 Y12.1002 F508.00 
G01 X34.8052 Y12.1946 
G01 X35.0028 Y12.2588 
G01 X35.2081 Y12.2913 
G01 X35.4159 Y12.2913 
G01 X35.6212 Y12.2588 
G01 X35.8188 Y12.1946 
G01 X36.0040 Y12.1002 
G01 X36.1721 Y11.9781 
G01 X36.3191 Y11.8311 
G01 X36.4106 Y11.7051 
G01 X37.6266 Y11.7051 
G01 X37.6867 Y11.8091 
G01 X37.7789 Y11.9013 
G01 X37.8918 Y11.9665 
G01 X38.0178 Y12.0003 
G01 X38.9482 Y12.0003 
G01 X39.0742 Y11.9665 
G01 X39.1871 Y11.9013 
G01 X39.2793 Y11.8091 
G01 X39.3445 Y11.6962 
G01 X39.3783 Y11.5702 
G01 X39.3783 Y10.2398 
G01 X39.3445 Y10.1138 
G01 X39.2793 Y10.0009 
G01 X39.1871 Y9.9087 
G01 X39.0742 Y9.8435 
G01 X38.9482 Y9.8097 
G01 X38.0178 Y9.8097 
G01 X37.8918 Y9.8435 
G01 X37.7789 Y9.9087 
G01 X37.6867 Y10.0009 
G01 X37.6266 Y10.1049 
G01 X36.6323 Y10.1049 
G01 X36.6323 Y9.2171 
G01 X36.5998 Y9.0118 
G01 X36.5356 Y8.8142 
G01 X36.4412 Y8.6290 
G01 X36.3191 Y8.4609 
G01 X36.1721 Y8.3139 
G01 X36.0040 Y8.1918 
G01 X35.8188 Y8.0974 
G01 X35.6212 Y8.0332 
G01 X35.4159 Y8.0007 
G01 X35.2081 Y8.0007 
G01 X35.0028 Y8.0332 
G01 X34.8052 Y8.0974 
G01 X34.6200 Y8.1918 
G01 X34.4519 Y8.3139 
G01 X34.3049 Y8.4609 
G01 X34.1828 Y8.6290 
G01 X34.0884 Y8.8142 
G01 X34.0242 Y9.0118 
G01 X33.9917 Y9.2171 
G01 X33.9917 Y11.0749 
G01 X34.0242 Y11.2802 
G01 X34.0884 Y11.4778 
G01 X34.1828 Y11.6630 
G01 X34.3049 Y11.8311 
G01 X34.4519 Y11.9781 
G00 Z2.5400 
G00 X39.5789 Y11.9013 
G01 Z-0.1778 F254.00 
G01 X39.6918 Y11.9665 F508.00 
G01 X39.8178 Y12.0003 
G01 X40.7482 Y12.0003 
G01 X40.8742 Y11.9665 
G01 X40.9871 Y11.9013 
G01 X41.0793 Y11.8091 
G01 X41.1423 Y11.7001 
G01 X41.4788 Y11.7001 
G01 X41.6334 Y11.6693 
G01 X41.7790 Y11.6090 
G01 X41.9100 Y11.5215 
G01 X42.0215 Y11.4100 
G01 X42.8009 Y10.6306 
G01 X42.9403 Y10.7111 
G01 X43.1547 Y10.7999 
G01 X43.3789 Y10.8600 
G01 X43.6090 Y10.8903 
G01 X46.3910 Y10.8903 
G01 X46.6211 Y10.8600 
G01 X46.8453 Y10.7999 
G01 X47.0597 Y10.7111 
G01 X47.2606 Y10.5951 
G01 X47.4447 Y10.4538 
G01 X47.6088 Y10.2897 
G01 X47.7501 Y10.1056 
G01 X47.8661 Y9.9047 
G01 X47.9549 Y9.6903 
G01 X48.0150 Y9.4661 
G01 X48.0453 Y9.2360 
G01 X48.0453 Y9.0040 
G01 X48.0150 Y8.7739 
G01 X47.9549 Y8.5497 
G01 X47.8661 Y8.3353 
G01 X47.7501 Y8.1344 
G01 X47.6088 Y7.9503 
G01 X47.4447 Y7.7862 
G01 X47.2606 Y7.6449 
G01 X47.0597 Y7.5289 
G01 X46.8453 Y7.4401 
G01 X46.6211 Y7.3800 
G01 X46.3910 Y7.3497 
G01 X43.6090 Y7.3497 
G01 X43.3789 Y7.3800 
G01 X43.1547 Y7.4401 
G01 X42.9403 Y7.5289 
G01 X42.7394 Y7.6449 
G01 X42.5553 Y7.7862 
G01 X42.3912 Y7.9503 
G01 X42.2499 Y8.1344 
G01 X42.1339 Y8.3353 
G01 X42.0451 Y8.5497 
G01 X41.9850 Y8.7739 
G01 X41.9547 Y9.0040 
G01 X41.9547 Y9.2138 
G01 X41.1116 Y10.0568 
G01 X41.0793 Y10.0009 
G01 X40.9871 Y9.9087 
G01 X40.8742 Y9.8435 
G01 X40.7482 Y9.8097 
G01 X39.8178 Y9.8097 
G01 X39.6918 Y9.8435 
G01 X39.5789 Y9.9087 
G01 X39.4867 Y10.0009 
G01 X39.4215 Y10.1138 
G01 X39.3877 Y10.2398 
G01 X39.3877 Y11.5702 
G01 X39.4215 Y11.6962 
G01 X39.4867 Y11.8091 
G01 X39.5789 Y11.9013 
G00 Z2.5400 
G00 X38.2041 Y16.1437 
G01 Z-0.1778 F254.00 
G01 X38.0912 Y16.0785 F508.00 
G01 X37.9652 Y16.0447 
G01 X37.0348 Y16.0447 
G01 X36.9088 Y16.0785 
G01 X36.7959 Y16.1437 
G01 X36.7037 Y16.2359 
G01 X36.6385 Y16.3488 
G01 X36.6047 Y16.4748 
G01 X36.6047 Y17.8052 
G01 X36.6385 Y17.9312 
G01 X36.7037 Y18.0441 
G01 X36.7959 Y18.1363 
G01 X36.9088 Y18.2015 
G01 X37.0348 Y18.2353 
G01 X37.9652 Y18.2353 
G01 X38.0912 Y18.2015 
G01 X38.2041 Y18.1363 
G01 X38.2963 Y18.0441 
G01 X38.3615 Y17.9312 
G01 X42.1646 Y17.8780 
G01 X42.2499 Y18.0256 
G01 X42.3912 Y18.2097 
G01 X42.5553 Y18.3738 
G01 X42.7394 Y18.5151 
G01 X42.9403 Y18.6311 
G01 X43.1547 Y18.7199 
G01 X43.3789 Y18.7800 
G01 X43.6090 Y18.8103 
G01 X46.3910 Y18.8103 
G01 X46.6211 Y18.7800 
G01 X46.8453 Y18.7199 
G01 X47.0597 Y18.6311 
G01 X47.2606 Y18.5151 
G01 X47.4447 Y18.3738 
G01 X47.6088 Y18.2097 
G01 X47.7501 Y18.0256 
G01 X47.8661 Y17.8247 
G01 X47.9549 Y17.6103 
G01 X48.0150 Y17.3861 
G01 X48.0453 Y17.1560 
G01 X48.0453 Y16.9240 
G01 X48.0150 Y16.6939 
G01 X47.9549 Y16.4697 
G01 X47.8661 Y16.2553 
G01 X47.7501 Y16.0544 
G01 X47.6088 Y15.8703 
G01 X47.4447 Y15.7062 
G01 X47.2606 Y15.5649 
G01 X47.0597 Y15.4489 
G01 X46.8453 Y15.3601 
G01 X46.6211 Y15.3000 
G01 X46.3910 Y15.2697 
G01 X43.6090 Y15.2697 
G01 X43.3789 Y15.3000 
G01 X43.1547 Y15.3601 
G01 X42.9403 Y15.4489 
G01 X42.7394 Y15.5649 
G01 X42.5553 Y15.7062 
G01 X42.3912 Y15.8703 
G01 X42.2499 Y16.0544 
G01 X42.1339 Y16.2553 
G01 X42.1244 Y16.2782 
G01 X38.3498 Y16.3285 
G01 X38.2963 Y16.2359 
G01 X38.2041 Y16.1437 
G00 Z2.5400 
G00 X3.0770 Y2.9113 
G01 Z-0.1778 F254.00 
G01 X2.9366 Y3.1046 F508.00 
G01 X2.8282 Y3.3174 
G01 X2.7544 Y3.5446 
G01 X2.7170 Y3.7806 
G01 X2.7170 Y4.0194 
G01 X2.7544 Y4.2554 
G01 X2.8282 Y4.4826 
G01 X2.9366 Y4.6954 
G01 X3.0770 Y4.8887 
G01 X3.2460 Y5.0576 
G01 X3.4392 Y5.1980 
G01 X3.6521 Y5.3065 
G01 X3.8793 Y5.3803 
G01 X4.1152 Y5.4176 
G01 X6.1448 Y5.4176 
G01 X6.3807 Y5.3803 
G01 X6.4416 Y5.3605 
G01 X15.4479 Y5.3605 
G01 X15.6750 Y5.3245 
G01 X15.8936 Y5.2535 
G01 X16.0985 Y5.1491 
G01 X16.2844 Y5.0140 
G01 X18.6460 Y2.6524 
G01 X18.7811 Y2.4665 
G01 X18.8855 Y2.2616 
G01 X18.9565 Y2.0430 
G01 X18.9925 Y1.8159 
G01 X18.9925 Y1.5861 
G01 X18.9793 Y1.5027 
G01 X18.9793 Y-0.0629 
G01 X18.9437 Y-0.2879 
G01 X18.8733 Y-0.5046 
G01 X18.7698 Y-0.7076 
G01 X18.6359 Y-0.8919 
G01 X18.4748 Y-1.0529 
G01 X18.2905 Y-1.1868 
G01 X18.0876 Y-1.2903 
G01 X17.8709 Y-1.3607 
G01 X17.6459 Y-1.3963 
G01 X17.4181 Y-1.3963 
G01 X17.1931 Y-1.3607 
G01 X16.9764 Y-1.2903 
G01 X16.7734 Y-1.1868 
G01 X16.5891 Y-1.0529 
G01 X16.4281 Y-0.8919 
G01 X16.2942 Y-0.7076 
G01 X16.1907 Y-0.5046 
G01 X16.1203 Y-0.2879 
G01 X16.0847 Y-0.0629 
G01 X16.0847 Y1.0828 
G01 X14.7280 Y2.4395 
G01 X6.4416 Y2.4395 
G01 X6.3807 Y2.4197 
G01 X6.1448 Y2.3824 
G01 X4.1152 Y2.3824 
G01 X3.8793 Y2.4197 
G01 X3.6521 Y2.4935 
G01 X3.4392 Y2.6020 
G01 X3.2460 Y2.7424 
G01 X3.0770 Y2.9113 
G00 Z2.5400 
G00 X3.0401 Y7.3590 
G01 Z-0.1778 F254.00 
G01 X2.8454 Y7.4714 F508.00 
G01 X2.6671 Y7.6082 
G01 X0.2671 Y10.0082 
G01 X0.1082 Y10.1671 
G01 X-0.0286 Y10.3454 
G01 X-0.1410 Y10.5401 
G01 X-0.2270 Y10.7477 
G01 X-0.2852 Y10.9648 
G01 X-0.3145 Y11.1876 
G01 X-0.3145 Y17.0124 
G01 X-0.2852 Y17.2352 
G01 X-0.2270 Y17.4523 
G01 X-0.1410 Y17.6599 
G01 X-0.0286 Y17.8546 
G01 X0.1082 Y18.0329 
G01 X2.1082 Y20.0329 
G01 X2.2671 Y20.1918 
G01 X2.4454 Y20.3286 
G01 X2.6401 Y20.4410 
G01 X2.8477 Y20.5270 
G01 X3.0648 Y20.5852 
G01 X3.2876 Y20.6145 
G01 X5.0176 Y20.6145 
G01 X7.1898 Y20.6145 
G01 X7.6082 Y21.0329 
G01 X7.7671 Y21.1918 
G01 X7.9454 Y21.3286 
G01 X8.1401 Y21.4410 
G01 X8.3477 Y21.5270 
G01 X8.5648 Y21.5852 
G01 X8.7876 Y21.6145 
G01 X10.7697 Y21.6145 
G01 X10.7916 Y21.7245 
G01 X10.8385 Y21.8378 
G01 X10.9066 Y21.9397 
G01 X10.9933 Y22.0264 
G01 X11.0952 Y22.0945 
G01 X11.2085 Y22.1414 
G01 X11.3287 Y22.1653 
G01 X13.2513 Y22.1653 
G01 X13.3715 Y22.1414 
G01 X13.4848 Y22.0945 
G01 X13.5867 Y22.0264 
G01 X13.6734 Y21.9397 
G01 X13.7415 Y21.8378 
G01 X13.7884 Y21.7245 
G01 X13.8123 Y21.6043 
G01 X13.8123 Y20.7353 
G01 X13.8310 Y20.7029 
G01 X13.9170 Y20.4953 
G01 X13.9752 Y20.2782 
G01 X14.0045 Y20.0554 
G01 X14.0045 Y19.8306 
G01 X13.9752 Y19.6078 
G01 X13.9170 Y19.3907 
G01 X13.8310 Y19.1831 
G01 X13.8123 Y19.1507 
G01 X13.8123 Y18.2817 
G01 X13.7884 Y18.1615 
G01 X13.7415 Y18.0482 
G01 X13.6734 Y17.9463 
G01 X13.5867 Y17.8596 
G01 X13.4848 Y17.7915 
G01 X13.4013 Y17.7569 
G01 X13.5038 Y17.7145 
G01 X13.6057 Y17.6464 
G01 X13.6924 Y17.5597 
G01 X13.7605 Y17.4578 
G01 X13.8074 Y17.3445 
G01 X13.8313 Y17.2243 
G01 X13.8313 Y16.3553 
G01 X13.8500 Y16.3229 
G01 X13.9360 Y16.1153 
G01 X13.9942 Y15.8982 
G01 X14.0235 Y15.6754 
G01 X14.0235 Y15.4506 
G01 X13.9942 Y15.2278 
G01 X13.9360 Y15.0107 
G01 X13.8500 Y14.8031 
G01 X13.8313 Y14.7707 
G01 X13.8313 Y13.9017 
G01 X13.8074 Y13.7815 
G01 X13.7605 Y13.6682 
G01 X13.6924 Y13.5663 
G01 X13.6057 Y13.4796 
G01 X13.5038 Y13.4115 
G01 X13.3905 Y13.3646 
G01 X13.3651 Y13.3596 
G01 X14.3102 Y12.4145 
G01 X19.1124 Y12.4145 
G01 X19.3352 Y12.3852 
G01 X19.5523 Y12.3270 
G01 X19.5565 Y12.3253 
G01 X19.7331 Y12.3827 
G01 X19.9581 Y12.4183 
G01 X20.1859 Y12.4183 
G01 X20.4109 Y12.3827 
G01 X20.6276 Y12.3123 
G01 X20.8305 Y12.2088 
G01 X21.0148 Y12.0749 
G01 X21.1759 Y11.9139 
G01 X21.3098 Y11.7295 
G01 X21.4133 Y11.5266 
G01 X21.4837 Y11.3099 
G01 X21.5193 Y11.0849 
G01 X21.5193 Y10.5502 
G01 X21.6130 Y10.3879 
G01 X21.6990 Y10.1803 
G01 X21.7572 Y9.9632 
G01 X21.7865 Y9.7404 
G01 X21.7865 Y9.2086 
G01 X21.7572 Y8.9858 
G01 X21.6990 Y8.7687 
G01 X21.6130 Y8.5611 
G01 X21.5006 Y8.3664 
G01 X21.3638 Y8.1881 
G01 X21.2049 Y8.0292 
G01 X21.0266 Y7.8924 
G01 X20.8319 Y7.7800 
G01 X20.6243 Y7.6940 
G01 X20.4072 Y7.6358 
G01 X20.1844 Y7.6065 
G01 X19.9596 Y7.6065 
G01 X19.7368 Y7.6358 
G01 X19.5197 Y7.6940 
G01 X19.3121 Y7.7800 
G01 X19.1174 Y7.8924 
G01 X18.9391 Y8.0292 
G01 X18.7802 Y8.1881 
G01 X18.6434 Y8.3664 
G01 X18.5310 Y8.5611 
G01 X18.4450 Y8.7687 
G01 X18.4225 Y8.8529 
G01 X18.2898 Y8.9855 
G01 X13.4876 Y8.9855 
G01 X13.2648 Y9.0148 
G01 X13.0477 Y9.0730 
G01 X12.8401 Y9.1590 
G01 X12.6454 Y9.2714 
G01 X12.4671 Y9.4082 
G01 X9.6898 Y12.1855 
G01 X5.0176 Y12.1855 
G01 X4.7948 Y12.2148 
G01 X4.5777 Y12.2730 
G01 X4.3701 Y12.3590 
G01 X4.3296 Y12.3824 
G01 X4.1152 Y12.3824 
G01 X3.8793 Y12.4197 
G01 X3.6521 Y12.4935 
G01 X3.4392 Y12.6020 
G01 X3.2460 Y12.7424 
G01 X3.1145 Y12.8739 
G01 X3.1145 Y12.0102 
G01 X4.5102 Y10.6145 
G01 X5.2424 Y10.6145 
G01 X5.4652 Y10.5852 
G01 X5.6823 Y10.5270 
G01 X5.8899 Y10.4410 
G01 X5.9303 Y10.4176 
G01 X6.1448 Y10.4176 
G01 X6.3807 Y10.3803 
G01 X6.6079 Y10.3065 
G01 X6.8208 Y10.1980 
G01 X7.0140 Y10.0576 
G01 X7.1829 Y9.8887 
G01 X7.3234 Y9.6954 
G01 X7.4318 Y9.4826 
G01 X7.5056 Y9.2554 
G01 X7.5430 Y9.0194 
G01 X7.5430 Y8.7806 
G01 X7.5056 Y8.5446 
G01 X7.4318 Y8.3174 
G01 X7.3234 Y8.1046 
G01 X7.1829 Y7.9113 
G01 X7.0140 Y7.7424 
G01 X6.8208 Y7.6020 
G01 X6.6079 Y7.4935 
G01 X6.3807 Y7.4197 
G01 X6.1448 Y7.3823 
G01 X5.9303 Y7.3823 
G01 X5.8899 Y7.3590 
G01 X5.6823 Y7.2730 
G01 X5.4652 Y7.2148 
G01 X5.2424 Y7.1855 
G01 X3.6876 Y7.1855 
G01 X3.4648 Y7.2148 
G01 X3.2477 Y7.2730 
G01 X3.0401 Y7.3590 
G00 Z2.5400 
G00 X3.1145 Y14.9261 
G01 Z-0.1778 F254.00 
G01 X3.2460 Y15.0576 F508.00 
G01 X3.4392 Y15.1980 
G01 X3.6521 Y15.3065 
G01 X3.8793 Y15.3803 
G01 X4.1152 Y15.4176 
G01 X4.3296 Y15.4176 
G01 X4.3701 Y15.4410 
G01 X4.5777 Y15.5270 
G01 X4.7948 Y15.5852 
G01 X5.0176 Y15.6145 
G01 X9.9358 Y15.6145 
G01 X10.7867 Y16.4654 
G01 X10.7867 Y17.2243 
G01 X10.8106 Y17.3445 
G01 X10.8575 Y17.4578 
G01 X10.9256 Y17.5597 
G01 X11.0123 Y17.6464 
G01 X11.1142 Y17.7145 
G01 X11.1977 Y17.7491 
G01 X11.0952 Y17.7915 
G01 X10.9933 Y17.8596 
G01 X10.9066 Y17.9463 
G01 X10.8385 Y18.0482 
G01 X10.7916 Y18.1615 
G01 X10.7868 Y18.1855 
G01 X9.6102 Y18.1855 
G01 X9.0329 Y17.6082 
G01 X8.8546 Y17.4714 
G01 X8.6599 Y17.3590 
G01 X8.4523 Y17.2730 
G01 X8.2352 Y17.2148 
G01 X8.0124 Y17.1855 
G01 X4.1102 Y17.1855 
G01 X3.1145 Y16.1898 
G01 X3.1145 Y14.9261 
G00 Z2.5400 
G00 X16.3867 Y13.9017 
G01 Z-0.1778 F254.00 
G01 X16.3867 Y17.2243 F508.00 
G01 X16.4106 Y17.3445 
G01 X16.4575 Y17.4578 
G01 X16.5256 Y17.5597 
G01 X16.6123 Y17.6464 
G01 X16.7142 Y17.7145 
G01 X16.7977 Y17.7491 
G01 X16.6952 Y17.7915 
G01 X16.5933 Y17.8596 
G01 X16.5066 Y17.9463 
G01 X16.4385 Y18.0482 
G01 X16.3916 Y18.1615 
G01 X16.3677 Y18.2817 
G01 X16.3677 Y21.6043 
G01 X16.3916 Y21.7245 
G01 X16.4385 Y21.8378 
G01 X16.5066 Y21.9397 
G01 X16.5933 Y22.0264 
G01 X16.6952 Y22.0945 
G01 X16.8085 Y22.1414 
G01 X16.9287 Y22.1653 
G01 X18.8513 Y22.1653 
G01 X18.9715 Y22.1414 
G01 X19.0848 Y22.0945 
G01 X19.1867 Y22.0264 
G01 X19.2734 Y21.9397 
G01 X19.3415 Y21.8378 
G01 X19.3884 Y21.7245 
G01 X19.4123 Y21.6043 
G01 X19.4123 Y20.7873 
G01 X22.4010 Y20.7873 
G01 X22.4235 Y20.8418 
G01 X22.4916 Y20.9437 
G01 X22.5783 Y21.0304 
G01 X22.6802 Y21.0985 
G01 X22.7935 Y21.1454 
G01 X22.9137 Y21.1693 
G01 X24.5563 Y21.1693 
G01 X24.6765 Y21.1454 
G01 X24.7898 Y21.0985 
G01 X24.8917 Y21.0304 
G01 X24.9784 Y20.9437 
G01 X25.0465 Y20.8418 
G01 X25.0934 Y20.7285 
G01 X25.1173 Y20.6083 
G01 X25.1173 Y18.7057 
G01 X25.0934 Y18.5855 
G01 X25.0465 Y18.4722 
G01 X24.9895 Y18.3870 
G01 X25.0465 Y18.3018 
G01 X25.0934 Y18.1885 
G01 X25.1173 Y18.0683 
G01 X25.1173 Y16.1657 
G01 X25.0934 Y16.0455 
G01 X25.0465 Y15.9322 
G01 X24.9895 Y15.8470 
G01 X25.0465 Y15.7618 
G01 X25.0934 Y15.6485 
G01 X25.1173 Y15.5283 
G01 X25.1173 Y13.6257 
G01 X25.0934 Y13.5055 
G01 X25.0465 Y13.3922 
G01 X24.9784 Y13.2903 
G01 X24.8917 Y13.2036 
G01 X24.7898 Y13.1355 
G01 X24.6765 Y13.0886 
G01 X24.5563 Y13.0647 
G01 X22.9137 Y13.0647 
G01 X22.7935 Y13.0886 
G01 X22.6802 Y13.1355 
G01 X22.5783 Y13.2036 
G01 X22.4916 Y13.2903 
G01 X22.4235 Y13.3922 
G01 X22.3766 Y13.5055 
G01 X22.3527 Y13.6257 
G01 X22.3527 Y15.5283 
G01 X22.3766 Y15.6485 
G01 X22.4235 Y15.7618 
G01 X22.4805 Y15.8470 
G01 X22.4235 Y15.9322 
G01 X22.4010 Y15.9867 
G01 X21.5852 Y15.9867 
G01 X20.3621 Y14.7637 
G01 X20.2363 Y14.6379 
G01 X20.0924 Y14.5333 
G01 X19.9339 Y14.4525 
G01 X19.7647 Y14.3975 
G01 X19.5890 Y14.3697 
G01 X19.4313 Y14.3697 
G01 X19.4313 Y13.9017 
G01 X19.4074 Y13.7815 
G01 X19.3605 Y13.6682 
G01 X19.2924 Y13.5663 
G01 X19.2057 Y13.4796 
G01 X19.1038 Y13.4115 
G01 X18.9905 Y13.3646 
G01 X18.8703 Y13.3407 
G01 X16.9477 Y13.3407 
G01 X16.8275 Y13.3646 
G01 X16.7142 Y13.4115 
G01 X16.6123 Y13.4796 
G01 X16.5256 Y13.5663 
G01 X16.4575 Y13.6682 
G01 X16.4106 Y13.7815 
G01 X16.3867 Y13.9017 
G00 Z2.5400 
G00 X19.4313 Y17.0298 
G01 Z-0.1778 F254.00 
G01 X20.3807 Y17.9791 F508.00 
G01 X20.5246 Y18.0837 
G01 X20.6831 Y18.1645 
G01 X20.8523 Y18.2195 
G01 X21.0280 Y18.2473 
G01 X22.4010 Y18.2473 
G01 X22.4235 Y18.3018 
G01 X22.4805 Y18.3870 
G01 X22.4235 Y18.4722 
G01 X22.4010 Y18.5267 
G01 X19.4123 Y18.5267 
G01 X19.4123 Y18.2817 
G01 X19.3884 Y18.1615 
G01 X19.3415 Y18.0482 
G01 X19.2734 Y17.9463 
G01 X19.1867 Y17.8596 
G01 X19.0848 Y17.7915 
G01 X19.0013 Y17.7569 
G01 X19.1038 Y17.7145 
G01 X19.2057 Y17.6464 
G01 X19.2924 Y17.5597 
G01 X19.3605 Y17.4578 
G01 X19.4074 Y17.3445 
G01 X19.4313 Y17.2243 
G01 X19.4313 Y17.0298 
G00 Z2.5400 
G00 X31.6427 Y16.1657 
G01 Z-0.1778 F254.00 
G01 X31.6427 Y18.0683 F508.00 
G01 X31.6666 Y18.1885 
G01 X31.7135 Y18.3018 
G01 X31.7705 Y18.3870 
G01 X31.7135 Y18.4722 
G01 X31.6666 Y18.5855 
G01 X31.6427 Y18.7057 
G01 X31.6427 Y20.6083 
G01 X31.6666 Y20.7285 
G01 X31.7135 Y20.8418 
G01 X31.7816 Y20.9437 
G01 X31.8683 Y21.0304 
G01 X31.9702 Y21.0985 
G01 X32.0835 Y21.1454 
G01 X32.2037 Y21.1693 
G01 X33.8463 Y21.1693 
G01 X33.9665 Y21.1454 
G01 X34.0798 Y21.0985 
G01 X34.1817 Y21.0304 
G01 X34.2684 Y20.9437 
G01 X34.3365 Y20.8418 
G01 X34.3834 Y20.7285 
G01 X34.4073 Y20.6083 
G01 X34.4073 Y18.7057 
G01 X34.3834 Y18.5855 
G01 X34.3365 Y18.4722 
G01 X34.2795 Y18.3870 
G01 X34.3365 Y18.3018 
G01 X34.3834 Y18.1885 
G01 X34.4073 Y18.0683 
G01 X34.4073 Y18.0441 
G01 X34.7548 Y18.0441 
G01 X34.8166 Y18.1367 
G01 X34.9033 Y18.2234 
G01 X35.0052 Y18.2915 
G01 X35.1185 Y18.3384 
G01 X35.2387 Y18.3623 
G01 X36.1613 Y18.3623 
G01 X36.2815 Y18.3384 
G01 X36.3948 Y18.2915 
G01 X36.4967 Y18.2234 
G01 X36.5834 Y18.1367 
G01 X36.6000 Y18.1118 
G01 X36.6166 Y18.1367 
G01 X36.7033 Y18.2234 
G01 X36.8052 Y18.2915 
G01 X36.9185 Y18.3384 
G01 X37.0387 Y18.3623 
G01 X37.9613 Y18.3623 
G01 X38.0815 Y18.3384 
G01 X38.1948 Y18.2915 
G01 X38.2967 Y18.2234 
G01 X38.3834 Y18.1367 
G01 X38.4382 Y18.0547 
G01 X42.0919 Y18.0060 
G01 X42.1441 Y18.0963 
G01 X42.2955 Y18.2937 
G01 X42.4713 Y18.4695 
G01 X42.6687 Y18.6209 
G01 X42.8840 Y18.7453 
G01 X43.1138 Y18.8405 
G01 X43.3541 Y18.9048 
G01 X43.6006 Y18.9373 
G01 X46.3994 Y18.9373 
G01 X46.6459 Y18.9048 
G01 X46.8862 Y18.8405 
G01 X47.1160 Y18.7453 
G01 X47.3313 Y18.6209 
G01 X47.5287 Y18.4695 
G01 X47.7045 Y18.2937 
G01 X47.8559 Y18.0963 
G01 X47.9803 Y17.8810 
G01 X48.0755 Y17.6512 
G01 X48.1398 Y17.4109 
G01 X48.1723 Y17.1644 
G01 X48.1723 Y16.9156 
G01 X48.1398 Y16.6691 
G01 X48.0755 Y16.4288 
G01 X47.9803 Y16.1990 
G01 X47.8559 Y15.9837 
G01 X47.7045 Y15.7863 
G01 X47.5287 Y15.6105 
G01 X47.3313 Y15.4591 
G01 X47.1160 Y15.3347 
G01 X46.8862 Y15.2395 
G01 X46.6459 Y15.1752 
G01 X46.3994 Y15.1427 
G01 X43.6006 Y15.1427 
G01 X43.3541 Y15.1752 
G01 X43.1138 Y15.2395 
G01 X42.8840 Y15.3347 
G01 X42.6687 Y15.4591 
G01 X42.4713 Y15.6105 
G01 X42.2955 Y15.7863 
G01 X42.1441 Y15.9837 
G01 X42.0468 Y16.1522 
G01 X38.4216 Y16.2005 
G01 X38.3834 Y16.1433 
G01 X38.2967 Y16.0566 
G01 X38.1948 Y15.9885 
G01 X38.0815 Y15.9416 
G01 X37.9613 Y15.9177 
G01 X37.0387 Y15.9177 
G01 X36.9185 Y15.9416 
G01 X36.8052 Y15.9885 
G01 X36.7033 Y16.0566 
G01 X36.6271 Y16.1328 
G01 X36.6271 Y15.6840 
G01 X38.2840 Y14.0271 
G01 X42.0810 Y14.0271 
G01 X42.1441 Y14.1363 
G01 X42.2955 Y14.3337 
G01 X42.4713 Y14.5095 
G01 X42.6687 Y14.6609 
G01 X42.8840 Y14.7853 
G01 X43.1138 Y14.8805 
G01 X43.3541 Y14.9448 
G01 X43.6006 Y14.9773 
G01 X46.3994 Y14.9773 
G01 X46.6459 Y14.9448 
G01 X46.8862 Y14.8805 
G01 X47.1160 Y14.7853 
G01 X47.3313 Y14.6609 
G01 X47.5287 Y14.5095 
G01 X47.7045 Y14.3337 
G01 X47.8559 Y14.1363 
G01 X47.9803 Y13.9210 
G01 X48.0755 Y13.6912 
G01 X48.1398 Y13.4509 
G01 X48.1723 Y13.2044 
G01 X48.1723 Y12.9556 
G01 X48.1398 Y12.7091 
G01 X48.0755 Y12.4688 
G01 X47.9803 Y12.2390 
G01 X47.8559 Y12.0237 
G01 X47.7045 Y11.8263 
G01 X47.5287 Y11.6505 
G01 X47.3313 Y11.4991 
G01 X47.1160 Y11.3747 
G01 X46.8862 Y11.2795 
G01 X46.6459 Y11.2152 
G01 X46.3994 Y11.1827 
G01 X43.6006 Y11.1827 
G01 X43.3541 Y11.2152 
G01 X43.1138 Y11.2795 
G01 X42.8840 Y11.3747 
G01 X42.6687 Y11.4991 
G01 X42.4713 Y11.6505 
G01 X42.2955 Y11.8263 
G01 X42.1441 Y12.0237 
G01 X42.0579 Y12.1729 
G01 X37.8087 Y12.1729 
G01 X37.6296 Y12.2085 
G01 X37.4609 Y12.2784 
G01 X37.3090 Y12.3799 
G01 X37.1799 Y12.5090 
G01 X34.9799 Y14.7090 
G01 X34.8784 Y14.8609 
G01 X34.8085 Y15.0296 
G01 X34.7729 Y15.2087 
G01 X34.7729 Y16.1899 
G01 X34.4073 Y16.1899 
G01 X34.4073 Y16.1657 
G01 X34.3834 Y16.0455 
G01 X34.3365 Y15.9322 
G01 X34.2795 Y15.8470 
G01 X34.3365 Y15.7618 
G01 X34.3834 Y15.6485 
G01 X34.4073 Y15.5283 
G01 X34.4073 Y13.6257 
G01 X34.3834 Y13.5055 
G01 X34.3365 Y13.3922 
G01 X34.2684 Y13.2903 
G01 X34.1817 Y13.2036 
G01 X34.0798 Y13.1355 
G01 X33.9665 Y13.0886 
G01 X33.9521 Y13.0857 
G01 X33.9521 Y11.4692 
G01 X33.9707 Y11.5266 
G01 X34.0742 Y11.7295 
G01 X34.2081 Y11.9139 
G01 X34.3691 Y12.0749 
G01 X34.5534 Y12.2088 
G01 X34.7564 Y12.3123 
G01 X34.9731 Y12.3827 
G01 X35.1981 Y12.4183 
G01 X35.4259 Y12.4183 
G01 X35.6509 Y12.3827 
G01 X35.8676 Y12.3123 
G01 X36.0705 Y12.2088 
G01 X36.2548 Y12.0749 
G01 X36.4159 Y11.9139 
G01 X36.4753 Y11.8321 
G01 X37.5531 Y11.8321 
G01 X37.5996 Y11.9017 
G01 X37.6863 Y11.9884 
G01 X37.7882 Y12.0565 
G01 X37.9015 Y12.1034 
G01 X38.0217 Y12.1273 
G01 X38.9443 Y12.1273 
G01 X39.0645 Y12.1034 
G01 X39.1778 Y12.0565 
G01 X39.2797 Y11.9884 
G01 X39.3664 Y11.9017 
G01 X39.3830 Y11.8768 
G01 X39.3996 Y11.9017 
G01 X39.4863 Y11.9884 
G01 X39.5882 Y12.0565 
G01 X39.7015 Y12.1034 
G01 X39.8217 Y12.1273 
G01 X40.7443 Y12.1273 
G01 X40.8645 Y12.1034 
G01 X40.9778 Y12.0565 
G01 X41.0797 Y11.9884 
G01 X41.1664 Y11.9017 
G01 X41.2162 Y11.8271 
G01 X41.4913 Y11.8271 
G01 X41.6704 Y11.7915 
G01 X41.8391 Y11.7216 
G01 X41.9910 Y11.6201 
G01 X42.1201 Y11.4910 
G01 X42.8218 Y10.7893 
G01 X42.8840 Y10.8253 
G01 X43.1138 Y10.9205 
G01 X43.3541 Y10.9848 
G01 X43.6006 Y11.0173 
G01 X46.3994 Y11.0173 
G01 X46.6459 Y10.9848 
G01 X46.8862 Y10.9205 
G01 X47.1160 Y10.8253 
G01 X47.3313 Y10.7009 
G01 X47.5287 Y10.5495 
G01 X47.7045 Y10.3737 
G01 X47.8559 Y10.1763 
G01 X47.9803 Y9.9610 
G01 X48.0755 Y9.7312 
G01 X48.1398 Y9.4909 
G01 X48.1723 Y9.2444 
G01 X48.1723 Y8.9956 
G01 X48.1398 Y8.7491 
G01 X48.0755 Y8.5088 
G01 X47.9803 Y8.2790 
G01 X47.8559 Y8.0637 
G01 X47.7045 Y7.8663 
G01 X47.5287 Y7.6905 
G01 X47.3313 Y7.5391 
G01 X47.1160 Y7.4147 
G01 X46.8862 Y7.3195 
G01 X46.6459 Y7.2552 
G01 X46.3994 Y7.2227 
G01 X43.6006 Y7.2227 
G01 X43.3541 Y7.2552 
G01 X43.1138 Y7.3195 
G01 X42.8840 Y7.4147 
G01 X42.6687 Y7.5391 
G01 X42.4713 Y7.6905 
G01 X42.2955 Y7.8663 
G01 X42.1441 Y8.0637 
G01 X42.0197 Y8.2790 
G01 X41.9245 Y8.5088 
G01 X41.8602 Y8.7491 
G01 X41.8277 Y8.9956 
G01 X41.8277 Y9.1612 
G01 X41.1235 Y9.8654 
G01 X41.0797 Y9.8216 
G01 X40.9778 Y9.7535 
G01 X40.8645 Y9.7066 
G01 X40.7443 Y9.6827 
G01 X39.8217 Y9.6827 
G01 X39.7015 Y9.7066 
G01 X39.5882 Y9.7535 
G01 X39.4863 Y9.8216 
G01 X39.3996 Y9.9083 
G01 X39.3830 Y9.9332 
G01 X39.3664 Y9.9083 
G01 X39.2797 Y9.8216 
G01 X39.1778 Y9.7535 
G01 X39.0645 Y9.7066 
G01 X38.9443 Y9.6827 
G01 X38.0217 Y9.6827 
G01 X37.9015 Y9.7066 
G01 X37.7882 Y9.7535 
G01 X37.6863 Y9.8216 
G01 X37.5996 Y9.9083 
G01 X37.5531 Y9.9779 
G01 X36.7593 Y9.9779 
G01 X36.7593 Y9.2071 
G01 X36.7237 Y8.9821 
G01 X36.6533 Y8.7654 
G01 X36.5498 Y8.5624 
G01 X36.4159 Y8.3781 
G01 X36.2548 Y8.2171 
G01 X36.0705 Y8.0832 
G01 X35.8676 Y7.9797 
G01 X35.6509 Y7.9093 
G01 X35.4259 Y7.8737 
G01 X35.1981 Y7.8737 
G01 X34.9731 Y7.9093 
G01 X34.7564 Y7.9797 
G01 X34.5534 Y8.0832 
G01 X34.3691 Y8.2171 
G01 X34.2081 Y8.3781 
G01 X34.0742 Y8.5624 
G01 X33.9707 Y8.7654 
G01 X33.9521 Y8.8228 
G01 X33.9521 Y4.3720 
G01 X35.1789 Y3.1452 
G01 X35.1981 Y3.1483 
G01 X35.4259 Y3.1483 
G01 X35.6509 Y3.1127 
G01 X35.8676 Y3.0423 
G01 X36.0705 Y2.9388 
G01 X36.2548 Y2.8049 
G01 X36.4159 Y2.6439 
G01 X36.4274 Y2.6281 
G01 X41.1570 Y2.6281 
G01 X42.3653 Y3.8365 
G01 X42.2955 Y3.9063 
G01 X42.1441 Y4.1037 
G01 X42.0197 Y4.3190 
G01 X41.9245 Y4.5488 
G01 X41.8602 Y4.7891 
G01 X41.8277 Y5.0356 
G01 X41.8277 Y5.2844 
G01 X41.8602 Y5.5309 
G01 X41.9245 Y5.7712 
G01 X42.0197 Y6.0010 
G01 X42.1441 Y6.2163 
G01 X42.2955 Y6.4137 
G01 X42.4713 Y6.5895 
G01 X42.6687 Y6.7409 
G01 X42.8840 Y6.8653 
G01 X43.1138 Y6.9605 
G01 X43.3541 Y7.0248 
G01 X43.6006 Y7.0573 
G01 X46.3994 Y7.0573 
G01 X46.6459 Y7.0248 
G01 X46.8862 Y6.9605 
G01 X47.1160 Y6.8653 
G01 X47.3313 Y6.7409 
G01 X47.5287 Y6.5895 
G01 X47.7045 Y6.4137 
G01 X47.8559 Y6.2163 
G01 X47.9803 Y6.0010 
G01 X48.0755 Y5.7712 
G01 X48.1398 Y5.5309 
G01 X48.1723 Y5.2844 
G01 X48.1723 Y5.0356 
G01 X48.1398 Y4.7891 
G01 X48.0755 Y4.5488 
G01 X47.9803 Y4.3190 
G01 X47.8559 Y4.1037 
G01 X47.7045 Y3.9063 
G01 X47.5287 Y3.7305 
G01 X47.3313 Y3.5791 
G01 X47.1160 Y3.4547 
G01 X46.8862 Y3.3595 
G01 X46.6459 Y3.2952 
G01 X46.3994 Y3.2627 
G01 X44.4138 Y3.2627 
G01 X42.1320 Y0.9809 
G01 X41.9801 Y0.8794 
G01 X41.8114 Y0.8095 
G01 X41.6323 Y0.7739 
G01 X36.7593 Y0.7739 
G01 X36.7593 Y-0.0629 
G01 X36.7237 Y-0.2879 
G01 X36.6533 Y-0.5046 
G01 X36.5498 Y-0.7076 
G01 X36.4159 Y-0.8919 
G01 X36.2548 Y-1.0529 
G01 X36.0705 Y-1.1868 
G01 X35.8676 Y-1.2903 
G01 X35.6509 Y-1.3607 
G01 X35.4259 Y-1.3963 
G01 X35.1981 Y-1.3963 
G01 X34.9731 Y-1.3607 
G01 X34.7564 Y-1.2903 
G01 X34.5534 Y-1.1868 
G01 X34.3691 Y-1.0529 
G01 X34.2081 Y-0.8919 
G01 X34.0742 Y-0.7076 
G01 X33.9707 Y-0.5046 
G01 X33.9003 Y-0.2879 
G01 X33.8647 Y-0.0629 
G01 X33.8647 Y1.8149 
G01 X33.8677 Y1.8341 
G01 X32.3049 Y3.3970 
G01 X32.2034 Y3.5489 
G01 X32.1335 Y3.7176 
G01 X32.0979 Y3.8967 
G01 X32.0979 Y13.0857 
G01 X32.0835 Y13.0886 
G01 X31.9702 Y13.1355 
G01 X31.8683 Y13.2036 
G01 X31.7816 Y13.2903 
G01 X31.7135 Y13.3922 
G01 X31.6666 Y13.5055 
G01 X31.6427 Y13.6257 
G01 X31.6427 Y15.5283 
G01 X31.6666 Y15.6485 
G01 X31.7135 Y15.7618 
G01 X31.7705 Y15.8470 
G01 X31.7135 Y15.9322 
G01 X31.6666 Y16.0455 
G01 X31.6427 Y16.1657 
G00 Z2.5400 
G82 X2.0000 Y-3.0000 Z-0.2794 F508.00 R2.5400 P1.000000
G82 X49.0000 Y-3.1000 
G82 X2.0000 Y26.0000 
G82 X49.0000 Y26.0000 
G82 X45.0000 Y5.1600 
G82 X45.0000 Y9.1200 
G82 X45.0000 Y13.0800 
G82 X45.0000 Y17.0400 
G82 X20.0720 Y9.3210 
G82 X35.3120 Y9.3210 
G82 X35.3120 Y1.7010 
G82 X17.5320 Y1.7010 
G82 X5.1300 Y18.9000 
G82 X5.1300 Y13.9000 
G82 X5.1300 Y8.9000 
G82 X5.1300 Y3.9000 
G00 Z12.7000 
M05
M02
